G90 (disable incremental moves)
G21 (metric)
F800.00000
S250.00000
G61 (exact path mode)
;PYCAM_TOOLPATH_SETTINGS: START
;[Bounds]
;maxz = 75.0
;maxx = 70.05621
;maxy = 70.05995
;minx = -70.0612
;miny = -70.05995
;minz = -8.326673e-14
;
;[Tool]
;torus_radius = 0.125
;shape = SphericalCutter
;tool_radius = 1.5875
;feedrate = 800.0
;
;[Process]
;engrave_offset = 0.0
;step_down = 3.0
;generator = DropCutter
;postprocessor = PathAccumulator
;overlap_percent = 80
;milling_style = ignore
;material_allowance = 0.0
;pocketing_type = none
;path_direction = x
;
;PYCAM_TOOLPATH_SETTINGS: END
G0 Z4.00000
M3 (start spindle)
G04 P3 (wait for 3 seconds)
G0 X-70.06120 Y-70.05995
G1 Z-0.00000
G1 X-15.04335
G1 X-14.84544 Z72.32401
G1 X-14.74649 Z73.08824
G1 X-14.70010 Z73.44640
G1 X-14.69856 Z73.45798
G1 X-14.69778 Z73.46299
G1 X-14.69701 Z73.46754
G1 X-14.68464 Z73.51599
G1 X-14.67846 Z73.53310
G1 X-14.67227 Z73.54807
G1 X-14.65990 Z73.57385
G1 X-14.65372 Z73.58530
G1 X-14.65063 Z73.59074
G1 X-14.64754 Z73.59602
G1 X-14.62280 Z73.63371
G1 X-14.59806 Z73.66576
G1 X-14.54858 Z73.71977
G1 X-14.49911 Z73.76535
G1 X-14.44963 Z73.80544
G1 X-14.35068 Z73.87471
G1 X-14.25172 Z73.93415
G1 X-14.05382 Z74.03446
G1 X-13.85591 Z74.11857
G1 X-13.46010 Z74.25686
G1 X-13.06429 Z74.36744
G1 X-12.66848 Z74.45186
G1 X-12.27266 Z74.52575
G1 X-11.87685 Z74.59109
G1 X-11.48104 Z74.64923
G1 X-11.08523 Z74.69584
G1 X-10.68942 Z74.73671
G1 X-10.29360 Z74.77382
G1 X-9.89779 Z74.80745
G1 X-9.50198 Z74.83573
G1 X-9.10617 Z74.85914
G1 X-8.71036 Z74.88051
G1 X-8.31454 Z74.89993
G1 X-7.91873 Z74.91694
G1 X-7.52292 Z74.92987
G1 X-7.12711 Z74.94163
G1 X-6.73130 Z74.95226
G1 X-6.33549 Z74.96177
G1 X-5.93967 Z74.96852
G1 X-5.54386 Z74.97441
G1 X-5.14805 Z74.97968
G1 X-4.75224 Z74.98433
G1 X-4.35643 Z74.98763
G1 X-3.96061 Z74.99015
G1 X-3.56480 Z74.99239
G1 X-3.16899 Z74.99433
G1 X-2.77318 Z74.99572
G1 X-2.37737 Z74.99654
G1 X-1.98155 Z74.99728
G1 X-1.58574 Z74.99793
G1 X-1.18993 Z74.99842
G1 X-0.39831 Z74.99862
G1 X0.39332 Z74.99881
G1 X0.78913 Z74.99855
G1 X1.18494 Z74.99823
G1 X1.58075 Z74.99788
G1 X1.97656 Z74.99750
G1 X2.37238 Z74.99666
G1 X2.76819 Z74.99550
G1 X3.16400 Z74.99417
G1 X3.55981 Z74.99266
G1 X3.95562 Z74.99049
G1 X4.35144 Z74.98742
G1 X4.74725 Z74.98391
G1 X5.14306 Z74.97996
G1 X5.53887 Z74.97520
G1 X5.93468 Z74.96845
G1 X6.33050 Z74.96086
G1 X6.72631 Z74.95242
G1 X7.12212 Z74.94311
G1 X7.51793 Z74.93018
G1 X7.91374 Z74.91570
G1 X8.30955 Z74.89973
G1 X8.70537 Z74.88221
G1 X9.10118 Z74.86027
G1 X9.49699 Z74.83465
G1 X9.89280 Z74.80645
G1 X10.28861 Z74.77551
G1 X10.68443 Z74.73940
G1 X11.08024 Z74.69541
G1 X11.47605 Z74.64659
G1 X11.87186 Z74.59233
G1 X12.26767 Z74.53162
G1 X12.66349 Z74.45319
G1 X13.05930 Z74.36277
G1 X13.45511 Z74.25653
G1 X13.65302 Z74.19550
G1 X13.75197 Z74.16246
G1 X13.85092 Z74.12743
G1 X13.94987 Z74.09011
G1 X14.04883 Z74.04694
G1 X14.14778 Z73.99759
G1 X14.19726 Z73.97100
G1 X14.22199 Z73.95715
G1 X14.23436 Z73.95007
G1 X14.24673 Z73.94288
G1 X14.34569 Z73.88093
G1 X14.39516 Z73.84629
G1 X14.41990 Z73.82779
G1 X14.43227 Z73.81821
G1 X14.44464 Z73.80837
G1 X14.64255 Z73.58205
G1 X14.84045 Z72.17130
G1 X14.93940 Z71.01907
G1 X14.98888 Z-0.00000
G1 X70.05621
G1 Y-69.42592
G1 X17.80904
G1 X17.61113 Z71.86474
G1 X17.46889 Z73.28943
G1 X17.46270 Z73.35127
G1 X17.45034 Z73.47106
G1 X17.44415 Z73.50421
G1 X17.44106 Z73.51691
G1 X17.43797 Z73.52821
G1 X17.42560 Z73.56523
G1 X17.41941 Z73.58070
G1 X17.41632 Z73.58791
G1 X17.41323 Z73.59484
G1 X17.38849 Z73.64277
G1 X17.37612 Z73.66327
G1 X17.36375 Z73.68214
G1 X17.33901 Z73.71507
G1 X17.31428 Z73.74325
G1 X17.26480 Z73.79293
G1 X17.21532 Z73.83653
G1 X17.11637 Z73.91166
G1 X17.06689 Z73.94490
G1 X17.01742 Z73.97596
G1 X16.81951 Z74.08406
G1 X16.62160 Z74.17429
G1 X16.22579 Z74.32161
G1 X15.82998 Z74.44009
G1 X15.43417 Z74.53509
G1 X15.03836 Z74.61161
G1 X14.64255 Z74.67821
G1 X14.24673 Z74.73639
G1 X13.85092 Z74.78705
G1 X13.45511 Z74.82665
G1 X13.05930 Z74.86151
G1 X12.66349 Z74.89197
G1 X12.26767 Z74.91829
G1 X11.87186 Z74.93886
G1 X11.47605 Z74.95561
G1 X11.08024 Z74.96959
G1 X10.68443 Z74.98087
G1 X10.28861 Z74.98909
G1 X9.89280 Z74.99454
G1 X9.49699 Z74.99811
G1 X9.10118 Z74.99983
G1 X8.70537 Z75.00000
G1 X-8.71036
G1 X-9.10617 Z74.99981
G1 X-9.50198 Z74.99826
G1 X-9.89779 Z74.99460
G1 X-10.29360 Z74.98862
G1 X-10.68942 Z74.98041
G1 X-11.08523 Z74.96994
G1 X-11.48104 Z74.95609
G1 X-11.87685 Z74.93810
G1 X-12.27266 Z74.91680
G1 X-12.66848 Z74.89205
G1 X-13.06429 Z74.86303
G1 X-13.46010 Z74.82602
G1 X-13.85591 Z74.78364
G1 X-14.25172 Z74.73537
G1 X-14.64754 Z74.68054
G1 X-15.04335 Z74.61191
G1 X-15.43916 Z74.53081
G1 X-15.83497 Z74.43601
G1 X-16.23078 Z74.32326
G1 X-16.42869 Z74.25796
G1 X-16.52764 Z74.22022
G1 X-16.62659 Z74.17818
G1 X-16.82450 Z74.08370
G1 X-16.92345 Z74.02968
G1 X-16.97293 Z74.00045
G1 X-16.99767 Z73.98518
G1 X-17.01004 Z73.97736
G1 X-17.02241 Z73.96942
G1 X-17.12136 Z73.90062
G1 X-17.17084 Z73.86181
G1 X-17.19557 Z73.84096
G1 X-17.20794 Z73.83011
G1 X-17.21413 Z73.82457
G1 X-17.22031 Z73.81895
G1 X-17.41822 Z73.53757
G1 X-17.61612 Z71.73529
G1 X-17.66560 Z70.56582
G1 X-17.69034 Z69.48653
G1 X-17.70271 Z-0.00000
G1 X-70.06120
G1 Y-68.79190
G1 X-20.18890
G1 X-19.99100 Z71.15729
G1 X-19.89204 Z72.51763
G1 X-19.84257 Z73.07885
G1 X-19.81783 Z73.34663
G1 X-19.81164 Z73.41148
G1 X-19.80855 Z73.44385
G1 X-19.80700 Z73.45950
G1 X-19.80546 Z73.47176
G1 X-19.79927 Z73.50588
G1 X-19.79618 Z73.51890
G1 X-19.79464 Z73.52485
G1 X-19.79309 Z73.53049
G1 X-19.76835 Z73.59872
G1 X-19.75598 Z73.62469
G1 X-19.74361 Z73.64776
G1 X-19.71887 Z73.68805
G1 X-19.69414 Z73.72303
G1 X-19.64466 Z73.78285
G1 X-19.61992 Z73.80924
G1 X-19.59518 Z73.83387
G1 X-19.49623 Z73.91974
G1 X-19.44675 Z73.95715
G1 X-19.39728 Z73.99186
G1 X-19.19937 Z74.11124
G1 X-19.00147 Z74.20956
G1 X-18.60565 Z74.36793
G1 X-18.20984 Z74.49338
G1 X-17.81403 Z74.59119
G1 X-17.41822 Z74.67115
G1 X-17.02241 Z74.73940
G1 X-16.62659 Z74.79767
G1 X-16.23078 Z74.84621
G1 X-15.83497 Z74.88432
G1 X-15.43916 Z74.91648
G1 X-15.04335 Z74.94306
G1 X-14.64754 Z74.96433
G1 X-14.25172 Z74.97925
G1 X-13.85591 Z74.98995
G1 X-13.46010 Z74.99680
G1 X-13.06429 Z74.99983
G1 X-12.66848 Z75.00000
G1 X12.66349
G1 X13.05930 Z74.99980
G1 X13.45511 Z74.99696
G1 X13.85092 Z74.99047
G1 X14.24673 Z74.97925
G1 X14.64255 Z74.96361
G1 X15.03836 Z74.94340
G1 X15.43417 Z74.91845
G1 X15.82998 Z74.88503
G1 X16.22579 Z74.84484
G1 X16.62160 Z74.79748
G1 X17.01742 Z74.74218
G1 X17.41323 Z74.67397
G1 X17.80904 Z74.59039
G1 X18.20485 Z74.49106
G1 X18.60066 Z74.37112
G1 X18.79857 Z74.30087
G1 X18.89752 Z74.26246
G1 X18.99648 Z74.21954
G1 X19.19438 Z74.11848
G1 X19.29333 Z74.06035
G1 X19.34281 Z74.02877
G1 X19.36755 Z74.01224
G1 X19.37992 Z74.00377
G1 X19.38610 Z73.99949
G1 X19.39229 Z73.99516
G1 X19.49124 Z73.92022
G1 X19.54072 Z73.87765
G1 X19.56546 Z73.85466
G1 X19.57782 Z73.84267
G1 X19.58401 Z73.83654
G1 X19.59019 Z73.83031
G1 X19.78810 Z73.47268
G1 X19.98601 Z70.80876
G1 X20.03548 Z-0.00000
G1 X70.05621
G1 Y-68.15787
G1 X22.16297
G1 X21.96507 Z72.42979
G1 X21.89085 Z73.30754
G1 X21.87848 Z73.45390
G1 X21.87230 Z73.49966
G1 X21.86920 Z73.51515
G1 X21.86766 Z73.52207
G1 X21.86611 Z73.52858
G1 X21.84137 Z73.60463
G1 X21.82900 Z73.63293
G1 X21.81664 Z73.65794
G1 X21.79190 Z73.70139
G1 X21.77953 Z73.72077
G1 X21.77334 Z73.72999
G1 X21.76716 Z73.73895
G1 X21.71768 Z73.80295
G1 X21.66821 Z73.85736
G1 X21.61873 Z73.90535
G1 X21.56925 Z73.94866
G1 X21.47030 Z74.02510
G1 X21.37135 Z74.09171
G1 X21.17344 Z74.20505
G1 X20.97554 Z74.30014
G1 X20.77763 Z74.38236
G1 X20.57972 Z74.45475
G1 X20.18391 Z74.56966
G1 X19.78810 Z74.66363
G1 X19.39229 Z74.74201
G1 X18.99648 Z74.80743
G1 X18.60066 Z74.85986
G1 X18.20485 Z74.90108
G1 X17.80904 Z74.93457
G1 X17.41323 Z74.96082
G1 X17.01742 Z74.98014
G1 X16.62160 Z74.99202
G1 X16.22579 Z74.99856
G1 X15.82998 Z75.00000
G1 X-15.83497
G1 X-16.23078 Z74.99869
G1 X-16.62659 Z74.99187
G1 X-17.02241 Z74.97916
G1 X-17.41822 Z74.96041
G1 X-17.81403 Z74.93539
G1 X-18.20984 Z74.90115
G1 X-18.60565 Z74.85788
G1 X-19.00147 Z74.80536
G1 X-19.39728 Z74.74251
G1 X-19.79309 Z74.66524
G1 X-20.18890 Z74.56733
G1 X-20.58471 Z74.44779
G1 X-20.78262 Z74.37745
G1 X-20.98053 Z74.29790
G1 X-21.17843 Z74.20635
G1 X-21.27738 Z74.15472
G1 X-21.32686 Z74.12709
G1 X-21.35160 Z74.11275
G1 X-21.37634 Z74.09804
G1 X-21.47529 Z74.03237
G1 X-21.52477 Z73.99472
G1 X-21.54950 Z73.97480
G1 X-21.57424 Z73.95403
G1 X-21.62372 Z73.90954
G1 X-21.64846 Z73.88554
G1 X-21.67320 Z73.86013
G1 X-21.77215 Z73.73745
G1 X-21.97006 Z72.32869
G1 X-22.06901 Z69.88926
G1 X-22.11848 Z-0.00000
G1 X-70.06120
G1 Y-67.52384
G1 X-23.94911
G1 X-23.85016 Z72.26489
G1 X-23.76358 Z73.40493
G1 X-23.75739 Z73.47826
G1 X-23.75430 Z73.49967
G1 X-23.75275 Z73.50860
G1 X-23.75198 Z73.51277
G1 X-23.75121 Z73.51677
G1 X-23.73884 Z73.56722
G1 X-23.72647 Z73.60478
G1 X-23.71410 Z73.63604
G1 X-23.70173 Z73.66337
G1 X-23.67699 Z73.71043
G1 X-23.65226 Z73.75081
G1 X-23.60278 Z73.81923
G1 X-23.57804 Z73.84921
G1 X-23.55330 Z73.87711
G1 X-23.50383 Z73.92800
G1 X-23.45435 Z73.97382
G1 X-23.40487 Z74.01571
G1 X-23.35540 Z74.05446
G1 X-23.25644 Z74.12451
G1 X-23.15749 Z74.18686
G1 X-23.05854 Z74.24323
G1 X-22.95958 Z74.29290
G1 X-22.56377 Z74.45435
G1 X-22.16796 Z74.58102
G1 X-21.77215 Z74.68335
G1 X-21.37634 Z74.76687
G1 X-20.98053 Z74.83208
G1 X-20.58471 Z74.88371
G1 X-20.18890 Z74.92499
G1 X-19.79309 Z74.95675
G1 X-19.39728 Z74.97931
G1 X-19.00147 Z74.99286
G1 X-18.60565 Z74.99935
G1 X-18.20984 Z75.00000
G1 X18.20485
G1 X18.60066 Z74.99952
G1 X18.99648 Z74.99303
G1 X19.39229 Z74.97885
G1 X19.78810 Z74.95677
G1 X20.18391 Z74.92646
G1 X20.57972 Z74.88525
G1 X20.97554 Z74.83172
G1 X21.37135 Z74.76573
G1 X21.76716 Z74.68532
G1 X22.16297 Z74.58662
G1 X22.55878 Z74.45623
G1 X22.75669 Z74.37818
G1 X22.85564 Z74.33504
G1 X22.95459 Z74.28861
G1 X23.15250 Z74.18350
G1 X23.25145 Z74.12300
G1 X23.30093 Z74.09017
G1 X23.32567 Z74.07300
G1 X23.33804 Z74.06421
G1 X23.35041 Z74.05527
G1 X23.44936 Z73.97770
G1 X23.49884 Z73.93388
G1 X23.52357 Z73.91034
G1 X23.53594 Z73.89809
G1 X23.54831 Z73.88549
G1 X23.74622 Z73.57413
G1 X23.94412 Z70.36473
G1 X23.99360 Z-0.00000
G1 X70.05621
G1 Y-66.88982
G1 X25.72528
G1 X25.52737 Z73.11935
G1 X25.51500 Z73.29649
G1 X25.50882 Z73.38381
G1 X25.50573 Z73.42716
G1 X25.50418 Z73.44876
G1 X25.50263 Z73.46757
G1 X25.49645 Z73.51211
G1 X25.49026 Z73.54186
G1 X25.48408 Z73.56576
G1 X25.47790 Z73.58636
G1 X25.46553 Z73.62150
G1 X25.45316 Z73.65146
G1 X25.44079 Z73.67798
G1 X25.42842 Z73.70203
G1 X25.40368 Z73.74478
G1 X25.37894 Z73.78242
G1 X25.35420 Z73.81640
G1 X25.34184 Z73.83229
G1 X25.32947 Z73.84756
G1 X25.23051 Z73.95323
G1 X25.18104 Z73.99822
G1 X25.13156 Z74.03953
G1 X25.03261 Z74.11366
G1 X24.93365 Z74.17914
G1 X24.73575 Z74.29169
G1 X24.53784 Z74.38660
G1 X24.14203 Z74.54064
G1 X23.74622 Z74.66117
G1 X23.35041 Z74.75236
G1 X22.95459 Z74.82543
G1 X22.55878 Z74.88386
G1 X22.16297 Z74.92935
G1 X21.76716 Z74.96230
G1 X21.37135 Z74.98395
G1 X20.97554 Z74.99643
G1 X20.57972 Z75.00000
G1 X4.35144
G1 X3.95562 Z74.99997
G1 X3.55981 Z74.99972
G1 X3.16400 Z74.99925
G1 X2.76819 Z74.99853
G1 X2.37238 Z74.99769
G1 X1.97656 Z74.99714
G1 X1.58075 Z74.99653
G1 X1.18494 Z74.99589
G1 X0.78913 Z74.99529
G1 X-0.79412
G1 X-1.18993 Z74.99590
G1 X-1.58574 Z74.99653
G1 X-1.98155 Z74.99714
G1 X-2.37737 Z74.99769
G1 X-2.77318 Z74.99854
G1 X-3.16899 Z74.99925
G1 X-3.56480 Z74.99973
G1 X-3.96061 Z74.99997
G1 X-4.35643 Z75.00000
G1 X-20.58471
G1 X-20.98053 Z74.99662
G1 X-21.37634 Z74.98388
G1 X-21.77215 Z74.96120
G1 X-22.16796 Z74.92819
G1 X-22.56377 Z74.88417
G1 X-22.95958 Z74.82626
G1 X-23.35540 Z74.75055
G1 X-23.75121 Z74.65633
G1 X-24.14702 Z74.53896
G1 X-24.34493 Z74.46924
G1 X-24.44388 Z74.43099
G1 X-24.54283 Z74.39013
G1 X-24.74074 Z74.29433
G1 X-24.83969 Z74.23912
G1 X-24.88917 Z74.20950
G1 X-24.91391 Z74.19411
G1 X-24.93864 Z74.17832
G1 X-25.03760 Z74.11048
G1 X-25.08707 Z74.07325
G1 X-25.11181 Z74.05365
G1 X-25.13655 Z74.03330
G1 X-25.18603 Z73.99005
G1 X-25.23550 Z73.94270
G1 X-25.33446 Z73.83005
G1 X-25.53236 Z72.85606
G1 X-25.63132 Z71.46475
G1 X-25.68079 Z-0.00000
G1 X-70.06120
G1 Y-66.25579
G1 X-27.31352
G1 X-27.11561 Z73.14874
G1 X-27.09706 Z73.42568
G1 X-27.09396 Z73.46868
G1 X-27.09087 Z73.49538
G1 X-27.07850 Z73.55978
G1 X-27.06613 Z73.60348
G1 X-27.04139 Z73.66921
G1 X-27.02903 Z73.69631
G1 X-27.01666 Z73.72097
G1 X-26.99192 Z73.76497
G1 X-26.96718 Z73.80383
G1 X-26.94244 Z73.83895
G1 X-26.93007 Z73.85540
G1 X-26.91770 Z73.87121
G1 X-26.81875 Z73.98071
G1 X-26.76927 Z74.02735
G1 X-26.71980 Z74.07016
G1 X-26.62084 Z74.14691
G1 X-26.52189 Z74.21462
G1 X-26.32399 Z74.33067
G1 X-26.12608 Z74.42673
G1 X-25.73027 Z74.57580
G1 X-25.33446 Z74.69237
G1 X-24.93864 Z74.78476
G1 X-24.54283 Z74.85761
G1 X-24.14702 Z74.91209
G1 X-23.75121 Z74.95165
G1 X-23.35540 Z74.97912
G1 X-22.95958 Z74.99511
G1 X-22.56377 Z75.00000
G1 X-10.29360
G1 X-9.89779 Z74.99984
G1 X-9.50198 Z74.99797
G1 X-9.10617 Z74.99434
G1 X-8.71036 Z74.99091
G1 X-7.52292 Z74.98137
G1 X-7.12711 Z74.97843
G1 X-6.73130 Z74.97514
G1 X-6.33549 Z74.97090
G1 X-5.93967 Z74.96570
G1 X-5.54386 Z74.96006
G1 X-5.14805 Z74.95485
G1 X-4.75224 Z74.94914
G1 X-4.35643 Z74.94335
G1 X-3.96061 Z74.93797
G1 X-2.77318 Z74.92636
G1 X-2.37737 Z74.92273
G1 X-1.18993 Z74.91693
G1 X-0.79412 Z74.91507
G1 X0.78913 Z74.91506
G1 X1.18494 Z74.91691
G1 X2.37238 Z74.92271
G1 X2.76819 Z74.92632
G1 X3.95562 Z74.93792
G1 X4.35144 Z74.94327
G1 X4.74725 Z74.94907
G1 X5.14306 Z74.95478
G1 X5.53887 Z74.96000
G1 X5.93468 Z74.96563
G1 X6.33050 Z74.97084
G1 X6.72631 Z74.97509
G1 X7.12212 Z74.97839
G1 X7.51793 Z74.98133
G1 X8.70537 Z74.99086
G1 X9.10118 Z74.99430
G1 X9.49699 Z74.99793
G1 X9.89280 Z74.99983
G1 X10.28861 Z75.00000
G1 X22.55878
G1 X22.95459 Z74.99518
G1 X23.35041 Z74.97998
G1 X23.74622 Z74.95255
G1 X24.14203 Z74.91178
G1 X24.53784 Z74.85701
G1 X24.93365 Z74.78657
G1 X25.32947 Z74.69686
G1 X25.72528 Z74.57741
G1 X25.92318 Z74.50560
G1 X26.12109 Z74.42351
G1 X26.31900 Z74.32838
G1 X26.41795 Z74.27460
G1 X26.46743 Z74.24582
G1 X26.51690 Z74.21559
G1 X26.61585 Z74.15010
G1 X26.66533 Z74.11436
G1 X26.71481 Z74.07620
G1 X26.76428 Z74.03518
G1 X26.81376 Z73.99069
G1 X26.91271 Z73.88734
G1 X27.11062 Z73.41850
G1 X27.20957 Z71.89867
G1 X27.25905 Z70.00109
G1 X27.28379 Z-0.00000
G1 X70.05621
G1 Y-65.62176
G1 X28.89177
G1 X28.69387 Z72.11480
G1 X28.64439 Z72.88332
G1 X28.61965 Z73.26331
G1 X28.60728 Z73.45313
G1 X28.60110 Z73.50890
G1 X28.59801 Z73.52699
G1 X28.59646 Z73.53504
G1 X28.59491 Z73.54259
G1 X28.57018 Z73.63004
G1 X28.55781 Z73.66242
G1 X28.54544 Z73.69097
G1 X28.52070 Z73.74049
G1 X28.50833 Z73.76253
G1 X28.50215 Z73.77302
G1 X28.49596 Z73.78320
G1 X28.44648 Z73.85585
G1 X28.39701 Z73.91742
G1 X28.34753 Z73.97160
G1 X28.29806 Z74.02037
G1 X28.19910 Z74.10610
G1 X28.14963 Z74.14446
G1 X28.10015 Z74.18041
G1 X27.90224 Z74.30581
G1 X27.70434 Z74.40970
G1 X27.30853 Z74.57507
G1 X26.91271 Z74.70137
G1 X26.51690 Z74.79533
G1 X26.12109 Z74.86779
G1 X25.72528 Z74.92287
G1 X25.32947 Z74.96242
G1 X24.93365 Z74.98735
G1 X24.53784 Z74.99873
G1 X24.14203 Z75.00000
G1 X13.85092
G1 X13.45511 Z74.99975
G1 X13.05930 Z74.99653
G1 X12.26767 Z74.98640
G1 X11.87186 Z74.98176
G1 X11.47605 Z74.97706
G1 X11.08024 Z74.96995
G1 X10.68443 Z74.95992
G1 X10.28861 Z74.94809
G1 X9.10118 Z74.91340
G1 X8.70537 Z74.90257
G1 X8.30955 Z74.89251
G1 X7.91374 Z74.88092
G1 X7.51793 Z74.86773
G1 X7.12212 Z74.85376
G1 X6.72631 Z74.84080
G1 X5.93468 Z74.81442
G1 X5.53887 Z74.80188
G1 X4.35144 Z74.77219
G1 X3.95562 Z74.76272
G1 X3.55981 Z74.75606
G1 X3.16400 Z74.74915
G1 X2.37238 Z74.73474
G1 X1.97656 Z74.73089
G1 X1.58075 Z74.72697
G1 X1.18494 Z74.72298
G1 X0.78913 Z74.71902
G1 X-0.79412
G1 X-1.18993 Z74.72303
G1 X-1.58574 Z74.72702
G1 X-1.98155 Z74.73094
G1 X-2.37737 Z74.73479
G1 X-2.77318 Z74.74204
G1 X-3.16899 Z74.74923
G1 X-3.56480 Z74.75615
G1 X-3.96061 Z74.76280
G1 X-4.35643 Z74.77232
G1 X-5.54386 Z74.80201
G1 X-5.93967 Z74.81459
G1 X-6.73130 Z74.84096
G1 X-7.12711 Z74.85391
G1 X-7.52292 Z74.86791
G1 X-7.91873 Z74.88108
G1 X-8.31454 Z74.89264
G1 X-8.71036 Z74.90269
G1 X-9.10617 Z74.91354
G1 X-10.29360 Z74.94823
G1 X-10.68942 Z74.96007
G1 X-11.08523 Z74.97006
G1 X-11.48104 Z74.97713
G1 X-11.87685 Z74.98181
G1 X-12.27266 Z74.98646
G1 X-13.06429 Z74.99659
G1 X-13.46010 Z74.99977
G1 X-13.85591 Z75.00000
G1 X-24.14702
G1 X-24.54283 Z74.99868
G1 X-24.93864 Z74.98661
G1 X-25.33446 Z74.96166
G1 X-25.73027 Z74.92319
G1 X-26.12608 Z74.86822
G1 X-26.52189 Z74.79341
G1 X-26.91770 Z74.69694
G1 X-27.31352 Z74.57343
G1 X-27.51142 Z74.49874
G1 X-27.61037 Z74.45738
G1 X-27.70933 Z74.41292
G1 X-27.80828 Z74.36342
G1 X-27.90723 Z74.30799
G1 X-28.00619 Z74.24702
G1 X-28.05566 Z74.21407
G1 X-28.08040 Z74.19688
G1 X-28.10514 Z74.17918
G1 X-28.20409 Z74.10246
G1 X-28.25357 Z74.05979
G1 X-28.27831 Z74.03713
G1 X-28.30305 Z74.01345
G1 X-28.50095 Z73.76164
G1 X-28.69886 Z71.83979
G1 X-28.74833 Z69.63503
G1 X-28.77307 Z-0.00000
G1 X-70.06120
G1 Y-64.98774
G1 X-30.48001
G1 X-30.08420 Z72.22675
G1 X-30.01153 Z73.43686
G1 X-30.00998 Z73.46164
G1 X-30.00380 Z73.51593
G1 X-29.99761 Z73.55021
G1 X-29.99143 Z73.57748
G1 X-29.98525 Z73.60081
G1 X-29.96051 Z73.67382
G1 X-29.94814 Z73.70339
G1 X-29.93577 Z73.73014
G1 X-29.91103 Z73.77759
G1 X-29.89866 Z73.79902
G1 X-29.88629 Z73.81927
G1 X-29.83682 Z73.89120
G1 X-29.78734 Z73.95284
G1 X-29.73786 Z74.00740
G1 X-29.71313 Z74.03262
G1 X-29.68839 Z74.05669
G1 X-29.58943 Z74.14359
G1 X-29.49048 Z74.21905
G1 X-29.39153 Z74.28603
G1 X-29.29258 Z74.34499
G1 X-29.09467 Z74.44543
G1 X-28.89676 Z74.53133
G1 X-28.50095 Z74.67097
G1 X-28.10514 Z74.77831
G1 X-27.70933 Z74.86056
G1 X-27.31352 Z74.92055
G1 X-26.91770 Z74.96181
G1 X-26.52189 Z74.98782
G1 X-26.12608 Z74.99932
G1 X-25.73027 Z75.00000
G1 X-16.62659
G1 X-16.23078 Z74.99972
G1 X-15.83497 Z74.99519
G1 X-15.43916 Z74.98888
G1 X-15.04335 Z74.98303
G1 X-14.64754 Z74.97709
G1 X-14.25172 Z74.96747
G1 X-13.85591 Z74.95304
G1 X-13.46010 Z74.93680
G1 X-12.66848 Z74.90605
G1 X-12.27266 Z74.88994
G1 X-11.87685 Z74.87113
G1 X-11.48104 Z74.85051
G1 X-11.08523 Z74.82759
G1 X-10.68942 Z74.80459
G1 X-10.29360 Z74.78239
G1 X-9.89779 Z74.76265
G1 X-9.50198 Z74.74194
G1 X-9.10617 Z74.71867
G1 X-8.71036 Z74.69341
G1 X-8.31454 Z74.66982
G1 X-7.52292 Z74.62194
G1 X-7.12711 Z74.59843
G1 X-6.73130 Z74.57926
G1 X-6.33549 Z74.56008
G1 X-5.93967 Z74.54008
G1 X-5.54386 Z74.51897
G1 X-5.14805 Z74.50201
G1 X-4.75224 Z74.48421
G1 X-4.35643 Z74.46554
G1 X-3.96061 Z74.44624
G1 X-2.77318 Z74.40720
G1 X-2.37737 Z74.39422
G1 X-0.79412 Z74.36819
G1 X-0.39831 Z74.36816
G1 X0.78913 Z74.36817
G1 X1.18494 Z74.37461
G1 X2.37238 Z74.39414
G1 X2.76819 Z74.40704
G1 X3.95562 Z74.44608
G1 X4.35144 Z74.46530
G1 X4.74725 Z74.48398
G1 X5.14306 Z74.50179
G1 X5.53887 Z74.51876
G1 X5.93468 Z74.53982
G1 X6.33050 Z74.55984
G1 X6.72631 Z74.57902
G1 X7.12212 Z74.59819
G1 X7.51793 Z74.62164
G1 X8.30955 Z74.66952
G1 X8.70537 Z74.69312
G1 X9.10118 Z74.71836
G1 X9.49699 Z74.74166
G1 X9.89280 Z74.76240
G1 X10.28861 Z74.78215
G1 X10.68443 Z74.80430
G1 X11.08024 Z74.82730
G1 X11.47605 Z74.85023
G1 X11.87186 Z74.87089
G1 X12.26767 Z74.88972
G1 X12.66349 Z74.90585
G1 X13.45511 Z74.93660
G1 X13.85092 Z74.95282
G1 X14.24673 Z74.96732
G1 X14.64255 Z74.97699
G1 X15.03836 Z74.98296
G1 X15.43417 Z74.98880
G1 X15.82998 Z74.99511
G1 X16.22579 Z74.99970
G1 X16.62160 Z75.00000
G1 X25.72528
G1 X26.12109 Z74.99937
G1 X26.51690 Z74.98858
G1 X26.91271 Z74.96253
G1 X27.30853 Z74.92017
G1 X27.70434 Z74.86025
G1 X28.10015 Z74.78048
G1 X28.49596 Z74.67564
G1 X28.69387 Z74.60928
G1 X28.89177 Z74.53312
G1 X29.08968 Z74.44499
G1 X29.18863 Z74.39545
G1 X29.23811 Z74.36907
G1 X29.28759 Z74.34149
G1 X29.38654 Z74.28229
G1 X29.48549 Z74.21670
G1 X29.58444 Z74.14300
G1 X29.63392 Z74.10231
G1 X29.65866 Z74.08080
G1 X29.67103 Z74.06972
G1 X29.67721 Z74.06410
G1 X29.68340 Z74.05841
G1 X30.07921 Z72.42645
G1 X30.17816 Z-0.00000
G1 X70.05621
G1 Y-64.35371
G1 X31.66246
G1 X31.46455 Z71.47106
G1 X31.35323 Z73.37220
G1 X31.34704 Z73.47275
G1 X31.34086 Z73.52260
G1 X31.32849 Z73.58297
G1 X31.32231 Z73.60617
G1 X31.31612 Z73.62684
G1 X31.29138 Z73.69452
G1 X31.27901 Z73.72274
G1 X31.27283 Z73.73589
G1 X31.26664 Z73.74850
G1 X31.24191 Z73.79464
G1 X31.21717 Z73.83551
G1 X31.16769 Z73.90652
G1 X31.11822 Z73.96771
G1 X31.06874 Z74.02204
G1 X30.96979 Z74.11631
G1 X30.92031 Z74.15807
G1 X30.87083 Z74.19702
G1 X30.67293 Z74.33159
G1 X30.57397 Z74.38915
G1 X30.47502 Z74.44171
G1 X30.27711 Z74.53461
G1 X30.07921 Z74.61429
G1 X29.68340 Z74.73888
G1 X29.28759 Z74.83267
G1 X28.89177 Z74.90294
G1 X28.49596 Z74.95293
G1 X28.10015 Z74.98447
G1 X27.70434 Z74.99857
G1 X27.30853 Z75.00000
G1 X18.99648
G1 X18.60066 Z74.99972
G1 X18.20485 Z74.99447
G1 X17.41323 Z74.98061
G1 X17.01742 Z74.97146
G1 X16.62160 Z74.95638
G1 X16.22579 Z74.93743
G1 X15.82998 Z74.91828
G1 X15.43417 Z74.89912
G1 X15.03836 Z74.87753
G1 X14.64255 Z74.85196
G1 X14.24673 Z74.82262
G1 X13.85092 Z74.79314
G1 X13.45511 Z74.76434
G1 X13.05930 Z74.73650
G1 X12.66349 Z74.70411
G1 X12.26767 Z74.66709
G1 X11.87186 Z74.62935
G1 X11.08024 Z74.56248
G1 X10.68443 Z74.52701
G1 X10.28861 Z74.48727
G1 X9.89280 Z74.44951
G1 X8.70537 Z74.33278
G1 X8.30955 Z74.29988
G1 X7.91374 Z74.26527
G1 X7.51793 Z74.22781
G1 X7.12212 Z74.18724
G1 X6.72631 Z74.15247
G1 X5.53887 Z74.05000
G1 X5.14306 Z74.02370
G1 X4.74725 Z73.99797
G1 X4.35144 Z73.97122
G1 X3.95562 Z73.94308
G1 X3.55981 Z73.92283
G1 X3.16400 Z73.90252
G1 X2.76819 Z73.88147
G1 X2.37238 Z73.85964
G1 X1.97656 Z73.84804
G1 X0.78913 Z73.81462
G1 X0.39332 Z73.81450
G1 X-0.39831
G1 X-0.79412 Z73.81475
G1 X-1.98155 Z73.84818
G1 X-2.37737 Z73.85992
G1 X-2.77318 Z73.88174
G1 X-3.16899 Z73.90278
G1 X-3.56480 Z73.92308
G1 X-3.96061 Z73.94344
G1 X-4.35643 Z73.97156
G1 X-4.75224 Z73.99830
G1 X-5.14805 Z74.02402
G1 X-5.54386 Z74.05043
G1 X-6.73130 Z74.15290
G1 X-7.12711 Z74.18777
G1 X-7.52292 Z74.22830
G1 X-7.91873 Z74.26572
G1 X-8.31454 Z74.30030
G1 X-8.71036 Z74.33327
G1 X-9.89779 Z74.45000
G1 X-10.29360 Z74.48778
G1 X-10.68942 Z74.52748
G1 X-11.08523 Z74.56290
G1 X-11.87685 Z74.62977
G1 X-12.27266 Z74.66757
G1 X-12.66848 Z74.70455
G1 X-13.06429 Z74.73688
G1 X-13.46010 Z74.76467
G1 X-13.85591 Z74.79351
G1 X-14.25172 Z74.82299
G1 X-14.64754 Z74.85232
G1 X-15.04335 Z74.87782
G1 X-15.43916 Z74.89937
G1 X-16.23078 Z74.93767
G1 X-16.62659 Z74.95660
G1 X-17.02241 Z74.97162
G1 X-17.41822 Z74.98070
G1 X-18.20984 Z74.99456
G1 X-18.60565 Z74.99975
G1 X-19.00147 Z75.00000
G1 X-27.31352
G1 X-27.70933 Z74.99847
G1 X-28.10514 Z74.98351
G1 X-28.50095 Z74.95217
G1 X-28.89676 Z74.90341
G1 X-29.29258 Z74.83285
G1 X-29.68839 Z74.73629
G1 X-29.88629 Z74.67700
G1 X-30.08420 Z74.60897
G1 X-30.28210 Z74.53060
G1 X-30.38106 Z74.48684
G1 X-30.48001 Z74.43952
G1 X-30.67792 Z74.33198
G1 X-30.77687 Z74.27014
G1 X-30.82635 Z74.23668
G1 X-30.85108 Z74.21923
G1 X-30.86345 Z74.21031
G1 X-30.87582 Z74.20126
G1 X-30.97478 Z74.12110
G1 X-31.02425 Z74.07525
G1 X-31.04899 Z74.05081
G1 X-31.06136 Z74.03816
G1 X-31.07373 Z74.02520
G1 X-31.27163 Z73.74476
G1 X-31.46954 Z70.99039
G1 X-31.51902 Z-0.00000
G1 X-70.06120
G1 Y-63.71968
G1 X-32.85488
G1 X-32.65698 Z72.85705
G1 X-32.63224 Z73.31076
G1 X-32.62605 Z73.42407
G1 X-32.62296 Z73.47470
G1 X-32.61987 Z73.50431
G1 X-32.61368 Z73.54494
G1 X-32.60750 Z73.57570
G1 X-32.59513 Z73.62409
G1 X-32.58276 Z73.66318
G1 X-32.57039 Z73.69683
G1 X-32.56421 Z73.71220
G1 X-32.55802 Z73.72680
G1 X-32.53328 Z73.77918
G1 X-32.50855 Z73.82397
G1 X-32.48381 Z73.86307
G1 X-32.47144 Z73.88122
G1 X-32.45907 Z73.89863
G1 X-32.36012 Z74.01842
G1 X-32.31064 Z74.06909
G1 X-32.26116 Z74.11543
G1 X-32.16221 Z74.19813
G1 X-32.11273 Z74.23549
G1 X-32.06326 Z74.27067
G1 X-31.86535 Z74.39401
G1 X-31.66745 Z74.49641
G1 X-31.46954 Z74.58336
G1 X-31.27163 Z74.65810
G1 X-30.87582 Z74.77869
G1 X-30.48001 Z74.86711
G1 X-30.08420 Z74.92925
G1 X-29.68839 Z74.97111
G1 X-29.29258 Z74.99431
G1 X-28.89676 Z75.00000
G1 X-20.98053
G1 X-20.58471 Z74.99915
G1 X-20.18890 Z74.99187
G1 X-19.79309 Z74.98413
G1 X-19.39728 Z74.97609
G1 X-19.00147 Z74.96148
G1 X-18.60565 Z74.93955
G1 X-18.20984 Z74.91737
G1 X-17.81403 Z74.89624
G1 X-17.41822 Z74.87017
G1 X-17.02241 Z74.83655
G1 X-16.62659 Z74.80115
G1 X-16.23078 Z74.76846
G1 X-15.83497 Z74.73382
G1 X-15.43916 Z74.69222
G1 X-15.04335 Z74.64498
G1 X-14.64754 Z74.60205
G1 X-14.25172 Z74.55918
G1 X-13.85591 Z74.51243
G1 X-13.46010 Z74.45841
G1 X-13.06429 Z74.40578
G1 X-12.66848 Z74.35404
G1 X-12.27266 Z74.30222
G1 X-11.87685 Z74.24604
G1 X-11.48104 Z74.18879
G1 X-11.08523 Z74.12925
G1 X-10.29360 Z74.01009
G1 X-9.89779 Z73.95416
G1 X-9.50198 Z73.89469
G1 X-9.10617 Z73.82920
G1 X-8.71036 Z73.76259
G1 X-8.31454 Z73.70396
G1 X-7.91873 Z73.64828
G1 X-7.52292 Z73.58880
G1 X-7.12711 Z73.52284
G1 X-6.73130 Z73.46118
G1 X-5.54386 Z73.28549
G1 X-5.14805 Z73.23716
G1 X-4.75224 Z73.18862
G1 X-4.35643 Z73.13575
G1 X-3.96061 Z73.07771
G1 X-3.56480 Z73.03427
G1 X-3.16899 Z72.99437
G1 X-2.37737 Z72.91454
G1 X-1.98155 Z72.89233
G1 X-1.58574 Z72.87237
G1 X-1.18993 Z72.85240
G1 X-0.79412 Z72.83201
G1 X-0.39831 Z72.83112
G1 X0.39332
G1 X0.78913 Z72.83175
G1 X1.18494 Z72.85215
G1 X1.97656 Z72.89207
G1 X2.37238 Z72.91404
G1 X3.55981 Z73.03377
G1 X3.95562 Z73.07695
G1 X4.35144 Z73.13505
G1 X4.74725 Z73.18798
G1 X5.14306 Z73.23657
G1 X5.53887 Z73.28474
G1 X6.72631 Z73.46044
G1 X7.12212 Z73.52196
G1 X7.51793 Z73.58801
G1 X7.91374 Z73.64757
G1 X8.30955 Z73.70326
G1 X8.70537 Z73.76175
G1 X9.10118 Z73.82836
G1 X9.49699 Z73.89390
G1 X9.89280 Z73.95344
G1 X10.28861 Z74.00934
G1 X11.08024 Z74.12850
G1 X11.47605 Z74.18805
G1 X11.87186 Z74.24529
G1 X12.26767 Z74.30156
G1 X12.66349 Z74.35339
G1 X13.05930 Z74.40513
G1 X13.45511 Z74.45768
G1 X13.85092 Z74.51180
G1 X14.24673 Z74.55863
G1 X14.64255 Z74.60151
G1 X15.03836 Z74.64438
G1 X15.43417 Z74.69164
G1 X15.82998 Z74.73334
G1 X16.22579 Z74.76805
G1 X16.62160 Z74.80074
G1 X17.01742 Z74.83610
G1 X17.41323 Z74.86979
G1 X17.80904 Z74.89596
G1 X18.20485 Z74.91710
G1 X18.60066 Z74.93926
G1 X18.99648 Z74.96124
G1 X19.39229 Z74.97596
G1 X19.78810 Z74.98403
G1 X20.18391 Z74.99177
G1 X20.57972 Z74.99910
G1 X20.97554 Z75.00000
G1 X28.89177
G1 X29.28759 Z74.99454
G1 X29.68340 Z74.97246
G1 X30.07921 Z74.93014
G1 X30.47502 Z74.86651
G1 X30.87083 Z74.77862
G1 X31.06874 Z74.72410
G1 X31.26664 Z74.66135
G1 X31.46455 Z74.58905
G1 X31.56350 Z74.54865
G1 X31.66246 Z74.50301
G1 X31.86036 Z74.39920
G1 X31.95932 Z74.33969
G1 X32.00879 Z74.30761
G1 X32.03353 Z74.29092
G1 X32.05827 Z74.27375
G1 X32.15722 Z74.19976
G1 X32.20670 Z74.15900
G1 X32.23144 Z74.13750
G1 X32.25617 Z74.11517
G1 X32.45408 Z73.89162
G1 X32.65199 Z72.80469
G1 X32.75094 Z69.51171
G1 X32.80042 Z-0.00000
G1 X70.05621
G1 Y-63.08566
G1 X34.03733
G1 X33.83942 Z73.21422
G1 X33.82705 Z73.44622
G1 X33.82087 Z73.51460
G1 X33.81468 Z73.55299
G1 X33.80231 Z73.60823
G1 X33.78995 Z73.65086
G1 X33.76521 Z73.71846
G1 X33.75284 Z73.74703
G1 X33.74047 Z73.77324
G1 X33.69099 Z73.86233
G1 X33.66625 Z73.90039
G1 X33.65388 Z73.91825
G1 X33.64152 Z73.93543
G1 X33.54256 Z74.05464
G1 X33.49309 Z74.10541
G1 X33.44361 Z74.15196
G1 X33.34466 Z74.23519
G1 X33.29518 Z74.27283
G1 X33.24570 Z74.30828
G1 X33.04780 Z74.42995
G1 X32.84989 Z74.52890
G1 X32.65199 Z74.61304
G1 X32.45408 Z74.68532
G1 X32.05827 Z74.80141
G1 X31.66246 Z74.88672
G1 X31.26664 Z74.94641
G1 X30.87083 Z74.98219
G1 X30.47502 Z74.99864
G1 X30.07921 Z75.00000
G1 X22.95459
G1 X22.55878 Z74.99992
G1 X22.16297 Z74.99366
G1 X21.76716 Z74.98491
G1 X21.37135 Z74.97589
G1 X20.97554 Z74.95956
G1 X20.57972 Z74.93543
G1 X20.18391 Z74.91070
G1 X19.78810 Z74.88472
G1 X19.39229 Z74.85196
G1 X18.99648 Z74.81304
G1 X18.60066 Z74.77398
G1 X18.20485 Z74.73284
G1 X17.80904 Z74.68622
G1 X17.41323 Z74.63413
G1 X17.01742 Z74.58197
G1 X16.62160 Z74.52786
G1 X16.22579 Z74.46857
G1 X15.82998 Z74.40428
G1 X15.43417 Z74.33984
G1 X15.03836 Z74.27390
G1 X14.64255 Z74.20293
G1 X14.24673 Z74.12700
G1 X13.85092 Z74.05064
G1 X13.45511 Z73.97320
G1 X13.05930 Z73.89077
G1 X12.66349 Z73.80310
G1 X12.26767 Z73.71453
G1 X11.87186 Z73.62497
G1 X11.47605 Z73.52978
G1 X11.08024 Z73.42875
G1 X10.68443 Z73.32660
G1 X10.28861 Z73.22240
G1 X9.89280 Z73.10888
G1 X9.49699 Z72.98980
G1 X9.10118 Z72.87044
G1 X8.70537 Z72.73984
G1 X8.30955 Z72.58713
G1 X7.91374 Z72.44116
G1 X7.71584 Z72.36604
G1 X7.61688 Z72.32347
G1 X7.51793 Z72.27555
G1 X7.32003 Z72.15637
G1 X7.02317 Z71.96537
G1 X6.97369 Z71.93313
G1 X6.94895 Z71.91631
G1 X6.93658 Z71.90902
G1 X6.93040 Z71.90529
G1 X6.92421 Z71.90150
G1 X6.87474 Z71.86876
G1 X6.85000 Z71.85031
G1 X6.83763 Z71.84039
G1 X6.83144 Z71.83523
G1 X6.82526 Z71.82991
G1 X6.80052 Z71.80676
G1 X6.78815 Z71.79374
G1 X6.78197 Z71.78675
G1 X6.77578 Z71.77937
G1 X6.76341 Z71.76311
G1 X6.75105 Z71.74394
G1 X6.72631 Z71.70029
G1 X6.60262 Z71.48182
G1 X6.57788 Z71.41558
G1 X6.55314 Z67.06527
G1 X6.52840 Z66.95797
G1 X6.47892 Z66.74346
G1 X6.44182 Z66.58251
G1 X6.42945 Z66.54436
G1 X6.33050 Z66.30395
G1 X5.93468 Z65.51231
G1 X5.73678 Z65.13812
G1 X5.53887 Z64.76394
G1 X5.14306 Z64.22269
G1 X4.94515 Z63.96298
G1 X4.74725 Z63.70325
G1 X4.35144 Z63.30712
G1 X3.95562 Z62.93584
G1 X3.55981 Z62.62524
G1 X3.36191 Z62.48318
G1 X3.16400 Z62.34113
G1 X2.76819 Z62.15727
G1 X2.37238 Z61.98674
G1 X1.97656 Z61.81624
G1 X1.58075 Z61.64572
G1 X1.18494 Z61.58227
G1 X0.78913 Z61.52542
G1 X0.00987 Z61.41351
G1 X-0.00250 Z61.41245
G1 X-0.39831 Z61.46931
G1 X-0.79412 Z61.52617
G1 X-1.53627 Z61.63276
G1 X-1.58574 Z61.64787
G1 X-2.37737 Z61.98893
G1 X-2.77318 Z62.15942
G1 X-3.07004 Z62.28732
G1 X-3.16899 Z62.34472
G1 X-3.56480 Z62.62883
G1 X-3.96061 Z62.94056
G1 X-4.65328 Z63.59026
G1 X-4.75224 Z63.70977
G1 X-5.44491 Z64.61878
G1 X-5.54386 Z64.77339
G1 X-6.23653 Z66.08310
G1 X-6.28601 Z66.19593
G1 X-6.43444 Z66.55649
G1 X-6.48391 Z66.76506
G1 X-6.53339 Z66.97959
G1 X-6.57050 Z67.14054
G1 X-6.57668 Z71.40624
G1 X-6.57823 Z71.41762
G1 X-6.57978 Z71.42543
G1 X-6.58132 Z71.43178
G1 X-6.58209 Z71.43460
G1 X-6.58287 Z71.43726
G1 X-6.60761 Z71.49061
G1 X-6.71893 Z71.68724
G1 X-6.72511 Z71.69817
G1 X-6.72820 Z71.70356
G1 X-6.73130 Z71.70902
G1 X-6.75604 Z71.75213
G1 X-6.76840 Z71.76995
G1 X-6.77459 Z71.77789
G1 X-6.78077 Z71.78536
G1 X-6.80551 Z71.81171
G1 X-6.83025 Z71.83421
G1 X-6.87973 Z71.87229
G1 X-6.92920 Z71.90456
G1 X-7.12711 Z72.03226
G1 X-7.32502 Z72.15959
G1 X-7.42397 Z72.22284
G1 X-7.47344 Z72.25167
G1 X-7.52292 Z72.27813
G1 X-7.91873 Z72.44301
G1 X-8.31454 Z72.58897
G1 X-8.71036 Z72.74171
G1 X-9.10617 Z72.87194
G1 X-9.50198 Z72.99130
G1 X-9.89779 Z73.11033
G1 X-10.29360 Z73.22380
G1 X-10.68942 Z73.32789
G1 X-11.08523 Z73.43004
G1 X-11.48104 Z73.53099
G1 X-11.87685 Z73.62615
G1 X-12.27266 Z73.71564
G1 X-12.66848 Z73.80421
G1 X-13.06429 Z73.89183
G1 X-13.46010 Z73.97422
G1 X-13.85591 Z74.05160
G1 X-14.25172 Z74.12796
G1 X-14.64754 Z74.20385
G1 X-15.04335 Z74.27478
G1 X-15.43916 Z74.34065
G1 X-15.83497 Z74.40510
G1 X-16.23078 Z74.46936
G1 X-16.62659 Z74.52859
G1 X-17.02241 Z74.58262
G1 X-17.41822 Z74.63479
G1 X-17.81403 Z74.68686
G1 X-18.20984 Z74.73341
G1 X-18.60565 Z74.77447
G1 X-19.00147 Z74.81353
G1 X-19.39728 Z74.85243
G1 X-19.79309 Z74.88507
G1 X-20.18890 Z74.91101
G1 X-20.58471 Z74.93574
G1 X-20.98053 Z74.95983
G1 X-21.37634 Z74.97604
G1 X-21.77215 Z74.98502
G1 X-22.16796 Z74.99377
G1 X-22.56377 Z74.99994
G1 X-22.95958 Z75.00000
G1 X-30.08420
G1 X-30.48001 Z74.99868
G1 X-30.87582 Z74.98170
G1 X-31.27163 Z74.94451
G1 X-31.66745 Z74.88560
G1 X-32.06326 Z74.80219
G1 X-32.26116 Z74.74898
G1 X-32.45907 Z74.68528
G1 X-32.65698 Z74.61117
G1 X-32.75593 Z74.56960
G1 X-32.85488 Z74.52458
G1 X-33.05279 Z74.42229
G1 X-33.15174 Z74.36371
G1 X-33.20122 Z74.33216
G1 X-33.22596 Z74.31575
G1 X-33.25069 Z74.29889
G1 X-33.34965 Z74.22634
G1 X-33.39912 Z74.18650
G1 X-33.44860 Z74.14377
G1 X-33.49808 Z74.09761
G1 X-33.54755 Z74.04727
G1 X-33.64651 Z73.92910
G1 X-33.84441 Z73.21007
G1 X-33.94336 Z71.17262
G1 X-33.99284 Z-0.00000
G1 X-70.06120
G1 Y-62.45163
G1 X-35.22975
G1 X-35.03185 Z72.51913
G1 X-34.98237 Z73.46550
G1 X-34.97619 Z73.52359
G1 X-34.97000 Z73.56033
G1 X-34.95763 Z73.61455
G1 X-34.94526 Z73.65689
G1 X-34.93908 Z73.67546
G1 X-34.93289 Z73.69278
G1 X-34.90816 Z73.75308
G1 X-34.88342 Z73.80384
G1 X-34.85868 Z73.84839
G1 X-34.84631 Z73.86893
G1 X-34.83394 Z73.88850
G1 X-34.73499 Z74.02075
G1 X-34.68551 Z74.07577
G1 X-34.63604 Z74.12575
G1 X-34.53708 Z74.21429
G1 X-34.48761 Z74.25405
G1 X-34.43813 Z74.29135
G1 X-34.24022 Z74.42122
G1 X-34.14127 Z74.47699
G1 X-34.04232 Z74.52790
G1 X-33.84441 Z74.61758
G1 X-33.64651 Z74.69191
G1 X-33.25069 Z74.80858
G1 X-32.85488 Z74.89352
G1 X-32.45907 Z74.95198
G1 X-32.06326 Z74.98691
G1 X-31.66745 Z74.99983
G1 X-31.27163 Z75.00000
G1 X-24.54283
G1 X-24.14702 Z74.99900
G1 X-23.75121 Z74.99038
G1 X-23.35540 Z74.98103
G1 X-22.95958 Z74.96786
G1 X-22.56377 Z74.94433
G1 X-22.16796 Z74.91778
G1 X-21.77215 Z74.89058
G1 X-21.37634 Z74.85400
G1 X-20.98053 Z74.81177
G1 X-20.58471 Z74.76956
G1 X-20.18890 Z74.72382
G1 X-19.79309 Z74.66643
G1 X-19.39728 Z74.60807
G1 X-19.00147 Z74.55107
G1 X-18.60565 Z74.48587
G1 X-18.20984 Z74.40992
G1 X-17.81403 Z74.33577
G1 X-17.41822 Z74.26248
G1 X-17.02241 Z74.17632
G1 X-16.62659 Z74.08337
G1 X-16.23078 Z73.99281
G1 X-15.83497 Z73.89804
G1 X-15.43916 Z73.78907
G1 X-15.04335 Z73.67875
G1 X-14.64754 Z73.56362
G1 X-14.25172 Z73.43694
G1 X-13.85591 Z73.30602
G1 X-13.46010 Z73.16618
G1 X-13.06429 Z72.99674
G1 X-12.66848 Z72.83782
G1 X-12.27266 Z72.64188
G1 X-12.07476 Z72.52556
G1 X-11.97580 Z72.46739
G1 X-11.90159 Z72.42377
G1 X-11.87685 Z72.40922
G1 X-11.77790 Z72.34663
G1 X-11.72842 Z72.31132
G1 X-11.67895 Z72.27230
G1 X-11.57999 Z72.17821
G1 X-11.53052 Z72.13059
G1 X-11.33261 Z71.95276
G1 X-11.30787 Z71.92989
G1 X-11.29550 Z71.91770
G1 X-11.28932 Z71.91139
G1 X-11.28623 Z71.90817
G1 X-11.28313 Z71.90491
G1 X-11.25840 Z71.87708
G1 X-11.23366 Z71.84515
G1 X-11.22129 Z71.82695
G1 X-11.21510 Z71.81708
G1 X-11.20892 Z71.80657
G1 X-11.19655 Z71.78298
G1 X-11.18418 Z71.75392
G1 X-11.13470 Z71.60241
G1 X-11.08523 Z71.44275
G1 X-10.98628 Z66.48266
G1 X-10.93680 Z66.28309
G1 X-10.88732 Z66.09106
G1 X-10.68942 Z65.39823
G1 X-10.29360 Z64.22058
G1 X-9.89779 Z63.25884
G1 X-9.50198 Z62.42056
G1 X-9.10617 Z61.74508
G1 X-8.71036 Z61.12158
G1 X-8.31454 Z60.58545
G1 X-7.91873 Z60.08081
G1 X-7.52292 Z59.62820
G1 X-7.12711 Z59.21491
G1 X-6.73130 Z58.84846
G1 X-6.33549 Z58.50157
G1 X-5.93967 Z58.20278
G1 X-4.80171 Z57.42645
G1 X-4.75224 Z57.39269
G1 X-4.35643 Z57.18469
G1 X-3.16899 Z56.68622
G1 X-2.77318 Z56.57256
G1 X-2.37737 Z56.47282
G1 X-1.58574 Z56.27337
G1 X-1.18993 Z56.23280
G1 X-0.39831 Z56.16631
G1 X-0.00249 Z56.13305
G1 X0.39332 Z56.16588
G1 X1.18494 Z56.23238
G1 X1.48180 Z56.25732
G1 X1.58075 Z56.27212
G1 X1.97656 Z56.37186
G1 X2.37238 Z56.47159
G1 X2.96609 Z56.62118
G1 X3.16400 Z56.68412
G1 X3.55981 Z56.85029
G1 X4.45039 Z57.22414
G1 X4.49987 Z57.24658
G1 X4.54934 Z57.27071
G1 X4.74725 Z57.38929
G1 X5.53887 Z57.92935
G1 X5.93468 Z58.19936
G1 X6.33050 Z58.49719
G1 X6.72631 Z58.84409
G1 X7.12212 Z59.20970
G1 X7.51793 Z59.62300
G1 X7.91374 Z60.07445
G1 X8.30955 Z60.57908
G1 X8.70537 Z61.11374
G1 X9.10118 Z61.73725
G1 X9.49699 Z62.41128
G1 X9.89280 Z63.24672
G1 X10.48652 Z64.68934
G1 X10.68443 Z65.38073
G1 X10.88233 Z66.07357
G1 X11.08024 Z67.09539
G1 X11.10498 Z71.51083
G1 X11.15445 Z71.66325
G1 X11.16682 Z71.70138
G1 X11.17919 Z71.73950
G1 X11.19156 Z71.77212
G1 X11.19774 Z71.78544
G1 X11.20393 Z71.79752
G1 X11.21630 Z71.81904
G1 X11.22867 Z71.83803
G1 X11.25341 Z71.87103
G1 X11.27814 Z71.89956
G1 X11.47605 Z72.08164
G1 X11.57500 Z72.17310
G1 X11.62448 Z72.22340
G1 X11.64922 Z72.24654
G1 X11.67396 Z72.26812
G1 X11.87186 Z72.40627
G1 X12.26767 Z72.63894
G1 X12.66349 Z72.83575
G1 X13.05930 Z72.99474
G1 X13.45511 Z73.16420
G1 X13.85092 Z73.30436
G1 X14.24673 Z73.43529
G1 X14.64255 Z73.56215
G1 X15.03836 Z73.67736
G1 X15.43417 Z73.78767
G1 X15.82998 Z73.89673
G1 X16.22579 Z73.99171
G1 X16.62160 Z74.08219
G1 X17.01742 Z74.17515
G1 X17.41323 Z74.26148
G1 X17.80904 Z74.33488
G1 X18.20485 Z74.40895
G1 X18.60066 Z74.48497
G1 X18.99648 Z74.55032
G1 X19.39229 Z74.60735
G1 X19.78810 Z74.66566
G1 X20.18391 Z74.72317
G1 X20.57972 Z74.76903
G1 X20.97554 Z74.81124
G1 X21.37135 Z74.85346
G1 X21.76716 Z74.89019
G1 X22.16297 Z74.91744
G1 X22.55878 Z74.94400
G1 X22.95459 Z74.96763
G1 X23.35041 Z74.98092
G1 X23.74622 Z74.99026
G1 X24.14203 Z74.99893
G1 X24.53784 Z75.00000
G1 X31.26664
G1 X31.66246 Z74.99982
G1 X32.05827 Z74.98683
G1 X32.45408 Z74.95286
G1 X32.84989 Z74.89619
G1 X33.24570 Z74.81009
G1 X33.44361 Z74.75513
G1 X33.64152 Z74.69090
G1 X33.83942 Z74.61593
G1 X33.93837 Z74.57378
G1 X34.03733 Z74.52805
G1 X34.23523 Z74.42390
G1 X34.33419 Z74.36410
G1 X34.38366 Z74.33183
G1 X34.40840 Z74.31504
G1 X34.43314 Z74.29777
G1 X34.53209 Z74.22332
G1 X34.58157 Z74.18233
G1 X34.60631 Z74.16072
G1 X34.63105 Z74.13827
G1 X34.82895 Z73.90908
G1 X35.02686 Z72.69910
G1 X35.07633 Z71.73038
G1 X35.10107 Z70.49099
G1 X35.11344 Z-0.00000
G1 X70.05621
G1 Y-61.81760
G1 X36.41220
G1 X36.21429 Z70.05418
G1 X36.11534 Z73.08779
G1 X36.09060 Z73.51842
G1 X36.07823 Z73.58754
G1 X36.07205 Z73.61330
G1 X36.06586 Z73.63607
G1 X36.04113 Z73.70989
G1 X36.02876 Z73.74047
G1 X36.02257 Z73.75469
G1 X36.01639 Z73.76831
G1 X35.99165 Z73.81804
G1 X35.96691 Z73.86196
G1 X35.91743 Z73.93807
G1 X35.86796 Z74.00345
G1 X35.84322 Z74.03320
G1 X35.81848 Z74.06136
G1 X35.71953 Z74.16148
G1 X35.67005 Z74.20569
G1 X35.62058 Z74.24683
G1 X35.52162 Z74.32158
G1 X35.42267 Z74.38815
G1 X35.32372 Z74.44814
G1 X35.22476 Z74.50262
G1 X35.02686 Z74.59805
G1 X34.82895 Z74.67874
G1 X34.63105 Z74.74738
G1 X34.43314 Z74.80574
G1 X34.03733 Z74.89346
G1 X33.64152 Z74.95298
G1 X33.24570 Z74.98795
G1 X32.84989 Z74.99998
G1 X32.45408 Z75.00000
G1 X26.12109
G1 X25.72528 Z74.99897
G1 X25.32947 Z74.98973
G1 X24.93365 Z74.97979
G1 X24.53784 Z74.96350
G1 X24.14203 Z74.93658
G1 X23.74622 Z74.90821
G1 X23.35041 Z74.87641
G1 X22.95459 Z74.83171
G1 X22.55878 Z74.78537
G1 X22.16297 Z74.73871
G1 X21.76716 Z74.68032
G1 X21.37135 Z74.61442
G1 X20.97554 Z74.55000
G1 X20.57972 Z74.47873
G1 X20.18391 Z74.39611
G1 X19.78810 Z74.31291
G1 X19.39229 Z74.22254
G1 X18.99648 Z74.12301
G1 X18.60066 Z74.02183
G1 X18.20485 Z73.91287
G1 X17.80904 Z73.78370
G1 X17.41323 Z73.66262
G1 X17.01742 Z73.52817
G1 X16.62160 Z73.36982
G1 X16.22579 Z73.20697
G1 X15.82998 Z73.02000
G1 X15.53312 Z72.87175
G1 X15.43417 Z72.82140
G1 X15.33522 Z72.76623
G1 X15.23626 Z72.70442
G1 X15.03836 Z72.56173
G1 X14.84045 Z72.41685
G1 X14.79097 Z72.37959
G1 X14.74150 Z72.33882
G1 X14.69202 Z72.29334
G1 X14.66728 Z72.26827
G1 X14.64255 Z72.24119
G1 X14.54359 Z72.12232
G1 X14.44464 Z72.00836
G1 X14.39516 Z71.95138
G1 X14.37042 Z71.92159
G1 X14.35806 Z71.90534
G1 X14.35187 Z71.89679
G1 X14.34878 Z71.89240
G1 X14.34569 Z71.88792
G1 X14.32095 Z71.84837
G1 X14.30858 Z71.82513
G1 X14.30239 Z71.81223
G1 X14.29621 Z71.79816
G1 X14.24673 Z71.62137
G1 X14.14778 Z66.66339
G1 X14.09830 Z66.36779
G1 X14.04883 Z66.11587
G1 X13.85092 Z65.16890
G1 X13.45511 Z63.76936
G1 X13.05930 Z62.58774
G1 X12.46558 Z61.14854
G1 X12.26767 Z60.74704
G1 X11.47605 Z59.37441
G1 X11.08024 Z58.75319
G1 X10.68443 Z58.19760
G1 X10.28861 Z57.69763
G1 X9.89280 Z57.20278
G1 X9.49699 Z56.77235
G1 X9.10118 Z56.36241
G1 X8.70537 Z55.99777
G1 X8.30955 Z55.63312
G1 X7.91374 Z55.28225
G1 X7.51793 Z54.98455
G1 X6.33050 Z54.19854
G1 X5.93468 Z53.96438
G1 X5.14306 Z53.55649
G1 X4.74725 Z53.37236
G1 X4.35144 Z53.22163
G1 X3.55981 Z52.96216
G1 X3.16400 Z52.83241
G1 X2.76819 Z52.74023
G1 X2.37238 Z52.66235
G1 X1.58075 Z52.50661
G1 X1.18494 Z52.47352
G1 X0.78913 Z52.44756
G1 X0.04698 Z52.39887
G1 X-0.00250 Z52.39594
G1 X-0.39831 Z52.42190
G1 X-0.79412 Z52.44788
G1 X-1.38784 Z52.48683
G1 X-1.58574 Z52.50759
G1 X-2.77318 Z52.74122
G1 X-3.16899 Z52.83406
G1 X-3.96061 Z53.09353
G1 X-4.35643 Z53.22326
G1 X-4.75224 Z53.37465
G1 X-5.14805 Z53.55906
G1 X-5.93967 Z53.96695
G1 X-6.33549 Z54.20184
G1 X-7.52292 Z54.98785
G1 X-7.91873 Z55.28628
G1 X-8.31454 Z55.63771
G1 X-9.10617 Z56.36701
G1 X-9.50198 Z56.77778
G1 X-9.89779 Z57.20821
G1 X-10.29360 Z57.70394
G1 X-10.68942 Z58.20389
G1 X-11.08523 Z58.76045
G1 X-11.48104 Z59.38306
G1 X-12.27266 Z60.75570
G1 X-12.66848 Z61.64034
G1 X-13.06429 Z62.59982
G1 X-13.46010 Z63.78514
G1 X-13.65801 Z64.41208
G1 X-13.75696 Z64.74009
G1 X-13.95486 Z65.64334
G1 X-14.05382 Z66.14129
G1 X-14.10329 Z66.39320
G1 X-14.15277 Z66.70880
G1 X-14.19915 Z67.13053
G1 X-14.20070 Z71.42033
G1 X-14.20225 Z71.43489
G1 X-14.22698 Z71.54337
G1 X-14.27646 Z71.73872
G1 X-14.28265 Z71.76095
G1 X-14.28883 Z71.77930
G1 X-14.29502 Z71.79528
G1 X-14.30120 Z71.80961
G1 X-14.31357 Z71.83487
G1 X-14.32594 Z71.85698
G1 X-14.33831 Z71.87687
G1 X-14.35068 Z71.89510
G1 X-14.40015 Z71.95713
G1 X-14.54858 Z72.12807
G1 X-14.59806 Z72.18635
G1 X-14.62280 Z72.21776
G1 X-14.63517 Z72.23264
G1 X-14.64754 Z72.24684
G1 X-14.84544 Z72.42051
G1 X-15.14230 Z72.63782
G1 X-15.24125 Z72.70773
G1 X-15.43916 Z72.82403
G1 X-15.83497 Z73.02250
G1 X-16.23078 Z73.20921
G1 X-16.62659 Z73.37183
G1 X-17.02241 Z73.53006
G1 X-17.41822 Z73.66414
G1 X-17.81403 Z73.78531
G1 X-18.20984 Z73.91438
G1 X-18.60565 Z74.02311
G1 X-19.00147 Z74.12428
G1 X-19.39728 Z74.22371
G1 X-19.79309 Z74.31396
G1 X-20.18890 Z74.39716
G1 X-20.58471 Z74.47973
G1 X-20.98053 Z74.55080
G1 X-21.37634 Z74.61526
G1 X-21.77215 Z74.68115
G1 X-22.16796 Z74.73935
G1 X-22.56377 Z74.78594
G1 X-22.95958 Z74.83232
G1 X-23.35540 Z74.87689
G1 X-23.75121 Z74.90857
G1 X-24.14702 Z74.93694
G1 X-24.54283 Z74.96378
G1 X-24.93864 Z74.97992
G1 X-25.33446 Z74.98986
G1 X-25.73027 Z74.99903
G1 X-26.12608 Z75.00000
G1 X-32.45907
G1 X-32.85488 Z74.99997
G1 X-33.25069 Z74.98805
G1 X-33.64651 Z74.95307
G1 X-34.04232 Z74.89199
G1 X-34.43813 Z74.80188
G1 X-34.63604 Z74.74417
G1 X-34.83394 Z74.67654
G1 X-35.03185 Z74.59730
G1 X-35.13080 Z74.55258
G1 X-35.18028 Z74.52877
G1 X-35.22975 Z74.50391
G1 X-35.32871 Z74.45074
G1 X-35.42766 Z74.39063
G1 X-35.52661 Z74.32288
G1 X-35.57609 Z74.28596
G1 X-35.60083 Z74.26663
G1 X-35.61320 Z74.25672
G1 X-35.62557 Z74.24666
G1 X-35.72452 Z74.15937
G1 X-35.77399 Z74.11030
G1 X-35.79873 Z74.08407
G1 X-35.81110 Z74.07047
G1 X-35.82347 Z74.05653
G1 X-36.02138 Z73.74954
G1 X-36.12033 Z72.88190
G1 X-36.16981 Z71.89296
G1 X-36.19454 Z71.18704
G1 X-36.21310 Z69.49488
G1 X-36.21619 Z-0.00000
G1 X-70.06120
G1 Y-61.18358
G1 X-37.60462
G1 X-37.20881 Z72.48273
G1 X-37.16243 Z73.44724
G1 X-37.16088 Z73.47395
G1 X-37.15934 Z73.49226
G1 X-37.14697 Z73.57682
G1 X-37.13460 Z73.63058
G1 X-37.12223 Z73.67332
G1 X-37.10986 Z73.70984
G1 X-37.08512 Z73.77157
G1 X-37.06038 Z73.82372
G1 X-37.03565 Z73.86960
G1 X-37.02328 Z73.89076
G1 X-37.01091 Z73.91093
G1 X-36.96143 Z73.98335
G1 X-36.91195 Z74.04471
G1 X-36.86248 Z74.09960
G1 X-36.83774 Z74.12513
G1 X-36.81300 Z74.14956
G1 X-36.71405 Z74.23820
G1 X-36.61510 Z74.31543
G1 X-36.51614 Z74.38397
G1 X-36.41719 Z74.44554
G1 X-36.21928 Z74.55222
G1 X-36.02138 Z74.64156
G1 X-35.82347 Z74.71715
G1 X-35.62557 Z74.78126
G1 X-35.22975 Z74.88081
G1 X-34.83394 Z74.94712
G1 X-34.43813 Z74.98552
G1 X-34.04232 Z74.99985
G1 X-33.64651 Z75.00000
G1 X-27.70933
G1 X-27.31352 Z74.99996
G1 X-26.91770 Z74.99221
G1 X-26.52189 Z74.98168
G1 X-26.12608 Z74.96640
G1 X-25.73027 Z74.93830
G1 X-25.33446 Z74.90813
G1 X-24.93864 Z74.87386
G1 X-24.54283 Z74.82543
G1 X-24.14702 Z74.77514
G1 X-23.75121 Z74.72304
G1 X-23.35540 Z74.65646
G1 X-22.95958 Z74.58606
G1 X-22.56377 Z74.51200
G1 X-22.16796 Z74.42665
G1 X-21.77215 Z74.33729
G1 X-21.37634 Z74.24300
G1 X-20.98053 Z74.12939
G1 X-20.58471 Z74.01861
G1 X-20.18890 Z73.89920
G1 X-19.79309 Z73.75820
G1 X-19.39728 Z73.61407
G1 X-19.00147 Z73.44849
G1 X-18.60565 Z73.27501
G1 X-18.20984 Z73.07120
G1 X-17.91298 Z72.89408
G1 X-17.81403 Z72.83471
G1 X-17.61612 Z72.69645
G1 X-17.51717 Z72.61840
G1 X-17.26979 Z72.41961
G1 X-17.24505 Z72.39960
G1 X-17.22031 Z72.37876
G1 X-17.17084 Z72.33368
G1 X-17.14610 Z72.30906
G1 X-17.12136 Z72.28268
G1 X-17.07188 Z72.22288
G1 X-17.04714 Z72.18860
G1 X-17.02241 Z72.15392
G1 X-16.92345 Z72.01518
G1 X-16.87398 Z71.94579
G1 X-16.84924 Z71.90823
G1 X-16.82450 Z71.86387
G1 X-16.81213 Z71.83762
G1 X-16.80595 Z71.82295
G1 X-16.79976 Z71.80687
G1 X-16.77502 Z71.71262
G1 X-16.75029 Z71.59369
G1 X-16.72555 Z71.47466
G1 X-16.67607 Z66.70097
G1 X-16.62659 Z66.36294
G1 X-16.23078 Z64.30916
G1 X-15.83497 Z62.77965
G1 X-15.43916 Z61.59898
G1 X-15.04335 Z60.60567
G1 X-14.64754 Z59.73933
G1 X-14.25172 Z58.90838
G1 X-13.85591 Z58.18125
G1 X-13.46010 Z57.52316
G1 X-13.06429 Z56.92186
G1 X-12.27266 Z55.79958
G1 X-11.87685 Z55.30888
G1 X-10.68942 Z54.00363
G1 X-10.29360 Z53.62468
G1 X-9.89779 Z53.27851
G1 X-9.50198 Z52.94242
G1 X-9.10617 Z52.60942
G1 X-7.91873 Z51.75522
G1 X-7.52292 Z51.50053
G1 X-6.33549 Z50.87071
G1 X-5.93967 Z50.67511
G1 X-5.14805 Z50.34827
G1 X-4.75224 Z50.18484
G1 X-4.35643 Z50.04302
G1 X-3.96061 Z49.92623
G1 X-3.56480 Z49.81384
G1 X-3.16899 Z49.70772
G1 X-2.77318 Z49.62842
G1 X-1.58574 Z49.43732
G1 X-1.18993 Z49.40804
G1 X-0.79412 Z49.38679
G1 X-0.00249 Z49.34432
G1 X0.39332 Z49.36530
G1 X0.78913 Z49.38654
G1 X1.18494 Z49.40777
G1 X1.58075 Z49.43652
G1 X1.97656 Z49.50021
G1 X2.76819 Z49.62760
G1 X3.16400 Z49.70638
G1 X3.55981 Z49.81251
G1 X3.95562 Z49.92476
G1 X4.35144 Z50.04155
G1 X4.74725 Z50.18279
G1 X5.14306 Z50.34621
G1 X5.93468 Z50.67304
G1 X6.33050 Z50.86806
G1 X7.51793 Z51.49787
G1 X7.91374 Z51.75163
G1 X9.10118 Z52.60583
G1 X9.49699 Z52.93818
G1 X9.89280 Z53.27426
G1 X10.28861 Z53.61993
G1 X10.68443 Z53.99815
G1 X11.87186 Z55.30340
G1 X12.26767 Z55.79250
G1 X12.66349 Z56.35364
G1 X13.05930 Z56.91480
G1 X13.45511 Z57.51495
G1 X13.85092 Z58.17208
G1 X14.24673 Z58.89919
G1 X14.64255 Z59.72841
G1 X15.03836 Z60.59476
G1 X15.43417 Z61.58409
G1 X15.82998 Z62.76477
G1 X16.22579 Z64.28970
G1 X16.42370 Z65.22355
G1 X16.62160 Z66.33497
G1 X16.72056 Z71.44422
G1 X16.74530 Z71.56980
G1 X16.77003 Z71.68869
G1 X16.78240 Z71.74788
G1 X16.78859 Z71.77234
G1 X16.79477 Z71.79252
G1 X16.80714 Z71.82589
G1 X16.81333 Z71.84032
G1 X16.81951 Z71.85370
G1 X16.91846 Z72.00818
G1 X16.96794 Z72.07754
G1 X17.01742 Z72.14691
G1 X17.06689 Z72.21616
G1 X17.11637 Z72.27712
G1 X17.16585 Z72.32884
G1 X17.21532 Z72.37443
G1 X17.41323 Z72.53488
G1 X17.61113 Z72.69273
G1 X17.80904 Z72.83162
G1 X18.20485 Z73.06822
G1 X18.60066 Z73.27283
G1 X18.99648 Z73.44630
G1 X19.39229 Z73.61213
G1 X19.78810 Z73.75640
G1 X20.18391 Z73.89752
G1 X20.57972 Z74.01724
G1 X20.97554 Z74.12790
G1 X21.37135 Z74.24169
G1 X21.76716 Z74.33617
G1 X22.16297 Z74.42553
G1 X22.55878 Z74.51102
G1 X22.95459 Z74.58517
G1 X23.35041 Z74.65558
G1 X23.74622 Z74.72230
G1 X24.14203 Z74.77453
G1 X24.53784 Z74.82478
G1 X24.93365 Z74.87333
G1 X25.32947 Z74.90775
G1 X25.72528 Z74.93791
G1 X26.12109 Z74.96611
G1 X26.51690 Z74.98155
G1 X26.91271 Z74.99207
G1 X27.30853 Z74.99995
G1 X27.70434 Z75.00000
G1 X33.64152
G1 X34.03733 Z74.99994
G1 X34.43314 Z74.98597
G1 X34.82895 Z74.94690
G1 X35.22476 Z74.88073
G1 X35.42267 Z74.83637
G1 X35.62058 Z74.78355
G1 X35.81848 Z74.72126
G1 X35.91743 Z74.68613
G1 X36.01639 Z74.64740
G1 X36.21429 Z74.55719
G1 X36.31325 Z74.50572
G1 X36.36272 Z74.47813
G1 X36.41220 Z74.44918
G1 X36.51115 Z74.38668
G1 X36.61011 Z74.31701
G1 X36.70906 Z74.23833
G1 X36.75853 Z74.19478
G1 X36.78327 Z74.17174
G1 X36.79564 Z74.15988
G1 X36.80183 Z74.15385
G1 X36.80801 Z74.14777
G1 X37.20382 Z72.48022
G1 X37.30278 Z-0.00000
G1 X70.05621
G1 Y-60.54955
G1 X38.39126
G1 X38.19335 Z73.20857
G1 X38.18098 Z73.46784
G1 X38.17480 Z73.52911
G1 X38.16861 Z73.56778
G1 X38.15625 Z73.62480
G1 X38.14388 Z73.66930
G1 X38.11914 Z73.74026
G1 X38.10677 Z73.77032
G1 X38.09440 Z73.79792
G1 X38.04492 Z73.89182
G1 X38.02018 Z73.93193
G1 X38.00782 Z73.95075
G1 X37.99545 Z73.96885
G1 X37.89649 Z74.09429
G1 X37.84702 Z74.14760
G1 X37.79754 Z74.19640
G1 X37.69859 Z74.28342
G1 X37.64911 Z74.32265
G1 X37.59963 Z74.35952
G1 X37.40173 Z74.48401
G1 X37.30278 Z74.53740
G1 X37.20382 Z74.58614
G1 X37.00592 Z74.67177
G1 X36.80801 Z74.74410
G1 X36.41220 Z74.85648
G1 X36.01639 Z74.93342
G1 X35.62058 Z74.98016
G1 X35.22476 Z74.99910
G1 X34.82895 Z75.00000
G1 X28.89177
G1 X28.49596 Z74.99724
G1 X28.10015 Z74.98617
G1 X27.70434 Z74.97381
G1 X27.30853 Z74.94800
G1 X26.91271 Z74.91606
G1 X26.51690 Z74.88199
G1 X26.12109 Z74.83290
G1 X25.72528 Z74.77877
G1 X25.32947 Z74.72372
G1 X24.93365 Z74.65281
G1 X24.53784 Z74.57794
G1 X24.14203 Z74.49653
G1 X23.74622 Z74.40168
G1 X23.35041 Z74.30620
G1 X22.95459 Z74.19771
G1 X22.55878 Z74.07250
G1 X22.16297 Z73.94779
G1 X21.76716 Z73.80198
G1 X21.37135 Z73.64892
G1 X20.97554 Z73.46935
G1 X20.57972 Z73.27199
G1 X20.18391 Z73.04805
G1 X19.88705 Z72.85665
G1 X19.83758 Z72.82394
G1 X19.78810 Z72.78916
G1 X19.59019 Z72.62121
G1 X19.39229 Z72.43415
G1 X19.34281 Z72.38679
G1 X19.29333 Z72.33432
G1 X19.26860 Z72.30524
G1 X19.24386 Z72.27367
G1 X19.19438 Z72.19979
G1 X19.09543 Z72.03662
G1 X19.04595 Z71.95642
G1 X19.02121 Z71.91689
G1 X18.99648 Z71.87013
G1 X18.98411 Z71.84236
G1 X18.97174 Z71.80962
G1 X18.95937 Z71.76773
G1 X18.94700 Z71.70701
G1 X18.89752 Z71.43958
G1 X18.84805 Z66.69425
G1 X18.79857 Z66.30782
G1 X18.60066 Z64.99091
G1 X18.20485 Z63.17108
G1 X17.80904 Z61.79918
G1 X17.41323 Z60.59423
G1 X17.01742 Z59.55000
G1 X16.62160 Z58.64494
G1 X16.22579 Z57.84289
G1 X15.82998 Z57.06777
G1 X15.43417 Z56.37727
G1 X15.03836 Z55.72288
G1 X14.64255 Z55.13170
G1 X14.24673 Z54.58249
G1 X13.85092 Z54.03330
G1 X13.45511 Z53.51817
G1 X12.26767 Z52.20368
G1 X11.87186 Z51.79701
G1 X11.47605 Z51.43788
G1 X10.68443 Z50.74064
G1 X10.28861 Z50.42469
G1 X9.89280 Z50.12213
G1 X9.49699 Z49.82305
G1 X9.10118 Z49.54814
G1 X8.70537 Z49.30823
G1 X7.51793 Z48.60952
G1 X7.12212 Z48.41817
G1 X6.33050 Z48.03667
G1 X5.93468 Z47.86789
G1 X4.74725 Z47.46005
G1 X4.35144 Z47.33795
G1 X3.16400 Z47.04646
G1 X2.76819 Z46.97127
G1 X2.37238 Z46.91296
G1 X1.58075 Z46.79632
G1 X1.18494 Z46.76846
G1 X0.78913 Z46.74901
G1 X0.09646 Z46.71498
G1 X-0.00250 Z46.71036
G1 X-0.39831 Z46.72981
G1 X-0.79412 Z46.74926
G1 X-1.18993 Z46.76870
G1 X-1.58574 Z46.79705
G1 X-1.98155 Z46.85537
G1 X-2.37737 Z46.91369
G1 X-2.77318 Z46.97201
G1 X-3.16899 Z47.04768
G1 X-4.35643 Z47.33917
G1 X-4.75224 Z47.46176
G1 X-5.93967 Z47.86960
G1 X-6.33549 Z48.03907
G1 X-7.12711 Z48.42058
G1 X-7.52292 Z48.61245
G1 X-8.71036 Z49.31116
G1 X-9.10617 Z49.55159
G1 X-9.50198 Z49.82651
G1 X-9.89779 Z50.12593
G1 X-10.29360 Z50.42850
G1 X-10.68942 Z50.74503
G1 X-11.48104 Z51.44227
G1 X-11.87685 Z51.80189
G1 X-12.27266 Z52.20919
G1 X-13.46010 Z53.52368
G1 X-13.85591 Z54.04022
G1 X-14.64754 Z55.13862
G1 X-15.04335 Z55.73076
G1 X-15.43916 Z56.38600
G1 X-15.83497 Z57.07649
G1 X-16.23078 Z57.85301
G1 X-16.62659 Z58.65504
G1 X-17.02241 Z59.56316
G1 X-17.41822 Z60.60740
G1 X-17.81403 Z61.81543
G1 X-18.20984 Z63.19234
G1 X-18.40775 Z64.03533
G1 X-18.50670 Z64.46567
G1 X-18.60565 Z65.02410
G1 X-18.80356 Z66.34100
G1 X-18.85304 Z66.75354
G1 X-18.89014 Z67.19448
G1 X-18.89633 Z71.42660
G1 X-18.90251 Z71.47419
G1 X-18.92725 Z71.60371
G1 X-18.93962 Z71.66842
G1 X-18.94580 Z71.70076
G1 X-18.95199 Z71.73311
G1 X-18.96436 Z71.78625
G1 X-18.97054 Z71.80609
G1 X-18.97673 Z71.82360
G1 X-18.98910 Z71.85404
G1 X-19.00147 Z71.88036
G1 X-19.10042 Z72.04484
G1 X-19.18700 Z72.18762
G1 X-19.19937 Z72.20801
G1 X-19.24885 Z72.28027
G1 X-19.27359 Z72.31129
G1 X-19.29832 Z72.33993
G1 X-19.39728 Z72.43887
G1 X-19.59518 Z72.62592
G1 X-19.69414 Z72.71595
G1 X-19.79309 Z72.79278
G1 X-20.18890 Z73.05126
G1 X-20.58471 Z73.27436
G1 X-20.98053 Z73.47189
G1 X-21.37634 Z73.65089
G1 X-21.77215 Z73.80391
G1 X-22.16796 Z73.94944
G1 X-22.56377 Z74.07408
G1 X-22.95958 Z74.19924
G1 X-23.35540 Z74.30741
G1 X-23.75121 Z74.40289
G1 X-24.14702 Z74.49769
G1 X-24.54283 Z74.57889
G1 X-24.93864 Z74.65375
G1 X-25.33446 Z74.72451
G1 X-25.73027 Z74.77942
G1 X-26.12608 Z74.83358
G1 X-26.52189 Z74.88250
G1 X-26.91770 Z74.91646
G1 X-27.31352 Z74.94841
G1 X-27.70933 Z74.97403
G1 X-28.10514 Z74.98631
G1 X-28.50095 Z74.99736
G1 X-28.89676 Z75.00000
G1 X-34.83394
G1 X-35.22975 Z74.99898
G1 X-35.62557 Z74.97896
G1 X-36.02138 Z74.93243
G1 X-36.41719 Z74.85682
G1 X-36.61510 Z74.80637
G1 X-36.81300 Z74.74419
G1 X-37.01091 Z74.67033
G1 X-37.10986 Z74.62837
G1 X-37.20881 Z74.58258
G1 X-37.40672 Z74.47752
G1 X-37.50567 Z74.41683
G1 X-37.55515 Z74.38402
G1 X-37.57989 Z74.36692
G1 X-37.60462 Z74.34933
G1 X-37.70358 Z74.27342
G1 X-37.75305 Z74.23159
G1 X-37.77779 Z74.20953
G1 X-37.80253 Z74.18662
G1 X-38.00044 Z73.95939
G1 X-38.19834 Z73.14922
G1 X-38.29730 Z69.78661
G1 X-38.34677 Z-0.00000
G1 X-70.06120
G1 Y-59.91552
G1 X-39.58368
G1 X-39.18787 Z73.01837
G1 X-39.16313 Z73.51068
G1 X-39.15077 Z73.58872
G1 X-39.14458 Z73.61677
G1 X-39.13840 Z73.64135
G1 X-39.11366 Z73.72030
G1 X-39.08892 Z73.78229
G1 X-39.03944 Z73.88116
G1 X-39.01470 Z73.92294
G1 X-38.98997 Z73.96121
G1 X-38.94049 Z74.02979
G1 X-38.89101 Z74.09040
G1 X-38.84154 Z74.14502
G1 X-38.81680 Z74.17049
G1 X-38.79206 Z74.19490
G1 X-38.69311 Z74.28363
G1 X-38.59415 Z74.36104
G1 X-38.49520 Z74.42971
G1 X-38.39625 Z74.49131
G1 X-38.19834 Z74.59760
G1 X-38.00044 Z74.68316
G1 X-37.80253 Z74.75500
G1 X-37.60462 Z74.81545
G1 X-37.20881 Z74.90743
G1 X-36.81300 Z74.96628
G1 X-36.41719 Z74.99570
G1 X-36.02138 Z75.00000
G1 X-30.08420
G1 X-29.68839 Z74.99380
G1 X-29.29258 Z74.98212
G1 X-28.89676 Z74.96527
G1 X-28.50095 Z74.93355
G1 X-28.10514 Z74.89985
G1 X-27.70933 Z74.85635
G1 X-27.31352 Z74.79921
G1 X-26.91770 Z74.74338
G1 X-26.52189 Z74.67303
G1 X-26.12608 Z74.59375
G1 X-25.73027 Z74.51022
G1 X-25.33446 Z74.40910
G1 X-24.93864 Z74.30758
G1 X-24.54283 Z74.19172
G1 X-24.14702 Z74.05841
G1 X-23.75121 Z73.91915
G1 X-23.35540 Z73.75895
G1 X-22.95958 Z73.59184
G1 X-22.56377 Z73.38520
G1 X-22.16796 Z73.16018
G1 X-21.97006 Z73.02537
G1 X-21.77215 Z72.88832
G1 X-21.67320 Z72.81869
G1 X-21.62372 Z72.78086
G1 X-21.57424 Z72.74008
G1 X-21.47529 Z72.64687
G1 X-21.42581 Z72.59664
G1 X-21.27738 Z72.44597
G1 X-21.22791 Z72.39551
G1 X-21.20317 Z72.36874
G1 X-21.19080 Z72.35469
G1 X-21.17843 Z72.34014
G1 X-21.07948 Z72.19625
G1 X-21.00526 Z72.06480
G1 X-20.98053 Z72.02100
G1 X-20.78262 Z66.84123
G1 X-20.58471 Z65.30082
G1 X-20.18890 Z63.14566
G1 X-19.79309 Z61.59717
G1 X-19.39728 Z60.34271
G1 X-19.00147 Z59.21044
G1 X-18.60565 Z58.24128
G1 X-18.20984 Z57.30567
G1 X-17.81403 Z56.54119
G1 X-17.41822 Z55.78661
G1 X-17.02241 Z55.07482
G1 X-16.62659 Z54.42090
G1 X-16.23078 Z53.81513
G1 X-15.83497 Z53.24494
G1 X-15.43916 Z52.70578
G1 X-15.04335 Z52.17382
G1 X-14.64754 Z51.68566
G1 X-13.85591 Z50.80555
G1 X-13.46010 Z50.37426
G1 X-13.06429 Z49.97980
G1 X-12.66848 Z49.61023
G1 X-12.27266 Z49.25182
G1 X-11.87685 Z48.90531
G1 X-11.08523 Z48.27179
G1 X-10.68942 Z47.96152
G1 X-10.29360 Z47.68748
G1 X-9.10617 Z46.93237
G1 X-8.71036 Z46.70304
G1 X-7.91873 Z46.27656
G1 X-7.52292 Z46.07522
G1 X-7.12711 Z45.90630
G1 X-5.93967 Z45.42354
G1 X-5.54386 Z45.29795
G1 X-4.75224 Z45.04742
G1 X-4.35643 Z44.93022
G1 X-3.16899 Z44.66165
G1 X-2.77318 Z44.58908
G1 X-1.58574 Z44.42787
G1 X-1.18993 Z44.40083
G1 X-0.00249 Z44.35103
G1 X0.39332 Z44.36743
G1 X1.18494 Z44.40062
G1 X1.58075 Z44.42719
G1 X2.76819 Z44.58841
G1 X3.16400 Z44.66051
G1 X4.35144 Z44.92909
G1 X4.74725 Z45.04584
G1 X5.14306 Z45.17111
G1 X5.53887 Z45.29638
G1 X5.93468 Z45.42164
G1 X6.33050 Z45.58242
G1 X7.12212 Z45.90426
G1 X7.51793 Z46.07274
G1 X7.91374 Z46.27387
G1 X8.70537 Z46.70035
G1 X9.10118 Z46.92919
G1 X9.49699 Z47.18090
G1 X9.89280 Z47.43261
G1 X10.28861 Z47.68431
G1 X10.68443 Z47.95785
G1 X11.08024 Z48.26779
G1 X11.47605 Z48.58455
G1 X11.87186 Z48.90130
G1 X12.26767 Z49.24730
G1 X12.66349 Z49.60571
G1 X13.05930 Z49.97482
G1 X13.45511 Z50.36929
G1 X13.85092 Z50.79999
G1 X14.64255 Z51.68011
G1 X15.03836 Z52.16765
G1 X15.43417 Z52.69899
G1 X15.82998 Z53.23815
G1 X16.22579 Z53.80751
G1 X16.62160 Z54.41326
G1 X17.01742 Z55.06649
G1 X17.41323 Z55.77710
G1 X17.80904 Z56.53168
G1 X18.20485 Z57.29463
G1 X18.60066 Z58.22931
G1 X18.99648 Z59.19615
G1 X19.39229 Z60.32843
G1 X19.78810 Z61.57954
G1 X20.18391 Z63.12084
G1 X20.38182 Z64.10537
G1 X20.57972 Z65.26505
G1 X20.77763 Z66.77736
G1 X20.82711 Z71.51454
G1 X20.85184 Z71.66476
G1 X20.86421 Z71.73985
G1 X20.87040 Z71.77201
G1 X20.87349 Z71.78516
G1 X20.87658 Z71.79710
G1 X20.90132 Z71.86986
G1 X20.91369 Z71.89814
G1 X20.92606 Z71.92340
G1 X20.95080 Z71.96835
G1 X20.97554 Z72.01216
G1 X21.07449 Z72.18741
G1 X21.09923 Z72.23032
G1 X21.12396 Z72.26849
G1 X21.14870 Z72.30278
G1 X21.17344 Z72.33412
G1 X21.27239 Z72.44091
G1 X21.47030 Z72.64180
G1 X21.51978 Z72.69097
G1 X21.56925 Z72.73578
G1 X21.76716 Z72.88487
G1 X22.16297 Z73.15690
G1 X22.55878 Z73.38249
G1 X22.95459 Z73.58953
G1 X23.35041 Z73.75689
G1 X23.74622 Z73.91729
G1 X24.14203 Z74.05673
G1 X24.53784 Z74.19006
G1 X24.93365 Z74.30629
G1 X25.32947 Z74.40783
G1 X25.72528 Z74.50904
G1 X26.12109 Z74.59275
G1 X26.51690 Z74.67203
G1 X26.91271 Z74.74262
G1 X27.30853 Z74.79848
G1 X27.70434 Z74.85568
G1 X28.10015 Z74.89942
G1 X28.49596 Z74.93313
G1 X28.89177 Z74.96495
G1 X29.28759 Z74.98197
G1 X29.68340 Z74.99365
G1 X30.07921 Z75.00000
G1 X36.01639
G1 X36.41220 Z74.99569
G1 X36.80801 Z74.96708
G1 X37.20382 Z74.91008
G1 X37.40173 Z74.86831
G1 X37.59963 Z74.81728
G1 X37.79754 Z74.75593
G1 X37.89649 Z74.72094
G1 X37.99545 Z74.68277
G1 X38.19335 Z74.59560
G1 X38.29231 Z74.54577
G1 X38.34178 Z74.51906
G1 X38.39126 Z74.49103
G1 X38.49021 Z74.43059
G1 X38.58916 Z74.36335
G1 X38.68812 Z74.28776
G1 X38.73759 Z74.24613
G1 X38.76233 Z74.22419
G1 X38.77470 Z74.21291
G1 X38.78089 Z74.20719
G1 X38.78707 Z74.20142
G1 X38.88602 Z74.10028
G1 X38.93550 Z74.04197
G1 X38.96024 Z74.01025
G1 X38.97261 Z73.99363
G1 X38.97879 Z73.98511
G1 X38.98498 Z73.97644
G1 X39.18288 Z73.32099
G1 X39.28184 Z70.09262
G1 X39.33131 Z-0.00000
G1 X70.05621
G1 Y-59.28150
G1 X40.37032
G1 X40.17241 Z72.33973
G1 X40.12294 Z73.42729
G1 X40.11675 Z73.51497
G1 X40.11057 Z73.55883
G1 X40.09820 Z73.62025
G1 X40.08583 Z73.66709
G1 X40.07964 Z73.68747
G1 X40.07346 Z73.70640
G1 X40.04872 Z73.77196
G1 X40.02398 Z73.82683
G1 X39.99924 Z73.87482
G1 X39.98688 Z73.89690
G1 X39.97451 Z73.91791
G1 X39.87555 Z74.05935
G1 X39.82608 Z74.11792
G1 X39.77660 Z74.17099
G1 X39.67765 Z74.26462
G1 X39.62817 Z74.30650
G1 X39.57869 Z74.34568
G1 X39.47974 Z74.41722
G1 X39.38079 Z74.48115
G1 X39.28184 Z74.53877
G1 X39.18288 Z74.59100
G1 X38.98498 Z74.68190
G1 X38.78707 Z74.75767
G1 X38.39126 Z74.86956
G1 X37.99545 Z74.94413
G1 X37.59963 Z74.98674
G1 X37.20382 Z75.00000
G1 X31.26664
G1 X30.87083 Z74.99173
G1 X30.47502 Z74.97957
G1 X30.07921 Z74.95849
G1 X29.68340 Z74.92348
G1 X29.28759 Z74.88683
G1 X28.89177 Z74.83361
G1 X28.49596 Z74.77486
G1 X28.10015 Z74.71125
G1 X27.70434 Z74.62955
G1 X27.30853 Z74.54541
G1 X26.91271 Z74.44396
G1 X26.51690 Z74.33645
G1 X26.12109 Z74.22040
G1 X25.72528 Z74.08060
G1 X25.32947 Z73.93462
G1 X24.93365 Z73.76364
G1 X24.53784 Z73.58546
G1 X24.14203 Z73.36411
G1 X23.94412 Z73.24929
G1 X23.74622 Z73.11670
G1 X23.54831 Z72.96160
G1 X23.44936 Z72.88836
G1 X23.39988 Z72.85175
G1 X23.35041 Z72.81372
G1 X23.15250 Z72.62633
G1 X23.05355 Z72.51901
G1 X23.00407 Z72.46535
G1 X22.95459 Z72.41170
G1 X22.90512 Z72.35465
G1 X22.88038 Z72.32288
G1 X22.85564 Z72.28822
G1 X22.80617 Z72.20611
G1 X22.75669 Z72.11250
G1 X22.70721 Z72.01890
G1 X22.68247 Z71.97209
G1 X22.67010 Z71.94869
G1 X22.66392 Z71.93673
G1 X22.65774 Z71.92422
G1 X22.55878 Z71.47598
G1 X22.45983 Z66.18095
G1 X22.36088 Z65.42134
G1 X22.16297 Z64.14394
G1 X21.76716 Z62.21996
G1 X21.37135 Z60.67290
G1 X20.97554 Z59.44786
G1 X20.57972 Z58.36723
G1 X20.18391 Z57.34362
G1 X19.78810 Z56.44716
G1 X19.39229 Z55.61613
G1 X18.99648 Z54.86946
G1 X18.60066 Z54.15170
G1 X18.20485 Z53.44480
G1 X17.80904 Z52.84182
G1 X17.41323 Z52.25263
G1 X17.01742 Z51.66625
G1 X16.62160 Z51.13583
G1 X16.22579 Z50.63737
G1 X15.82998 Z50.15197
G1 X15.43417 Z49.68405
G1 X15.03836 Z49.24302
G1 X14.64255 Z48.83296
G1 X13.85092 Z48.03328
G1 X13.45511 Z47.66708
G1 X13.05930 Z47.33299
G1 X11.87186 Z46.34855
G1 X11.47605 Z46.07002
G1 X10.68443 Z45.53558
G1 X10.28861 Z45.27367
G1 X9.89280 Z45.04175
G1 X9.49699 Z44.80982
G1 X9.10118 Z44.57790
G1 X8.70537 Z44.36215
G1 X7.91374 Z43.99812
G1 X7.51793 Z43.81611
G1 X7.12212 Z43.65349
G1 X5.93468 Z43.20627
G1 X5.53887 Z43.08509
G1 X4.74725 Z42.85301
G1 X4.35144 Z42.74093
G1 X3.95562 Z42.65800
G1 X3.55981 Z42.57747
G1 X3.16400 Z42.50028
G1 X2.76819 Z42.43567
G1 X1.58075 Z42.29667
G1 X1.18494 Z42.27210
G1 X0.39332 Z42.24121
G1 X-0.00250 Z42.22595
G1 X-1.18993 Z42.27230
G1 X-1.58574 Z42.29726
G1 X-2.77318 Z42.43625
G1 X-3.16899 Z42.50126
G1 X-3.56480 Z42.57844
G1 X-3.96061 Z42.65904
G1 X-4.35643 Z42.74197
G1 X-4.75224 Z42.85448
G1 X-5.54386 Z43.08657
G1 X-5.93967 Z43.20814
G1 X-7.12711 Z43.65536
G1 X-7.52292 Z43.81840
G1 X-8.71036 Z44.36445
G1 X-9.10617 Z44.58083
G1 X-10.29360 Z45.27659
G1 X-10.68942 Z45.53896
G1 X-11.48104 Z46.07339
G1 X-11.87685 Z46.35269
G1 X-13.06429 Z47.33712
G1 X-13.46010 Z47.67169
G1 X-13.85591 Z48.03831
G1 X-14.64754 Z48.83800
G1 X-15.04335 Z49.24857
G1 X-15.43916 Z49.68960
G1 X-15.83497 Z50.15810
G1 X-16.23078 Z50.64349
G1 X-16.62659 Z51.14251
G1 X-17.02241 Z51.67294
G1 X-17.41822 Z52.26007
G1 X-17.81403 Z52.84925
G1 X-18.20984 Z53.45284
G1 X-18.60565 Z54.16075
G1 X-19.00147 Z54.87852
G1 X-19.39728 Z55.62645
G1 X-19.79309 Z56.45826
G1 X-20.18890 Z57.35653
G1 X-20.58471 Z58.38015
G1 X-20.98053 Z59.46322
G1 X-21.37634 Z60.68935
G1 X-21.77215 Z62.24035
G1 X-21.97006 Z63.11608
G1 X-22.16796 Z64.17047
G1 X-22.26691 Z64.69997
G1 X-22.46482 Z66.21922
G1 X-22.51430 Z66.62648
G1 X-22.55140 Z67.13514
G1 X-22.55759 Z71.46760
G1 X-22.56068 Z71.48834
G1 X-22.56377 Z71.50840
G1 X-22.58851 Z71.66888
G1 X-22.60088 Z71.74881
G1 X-22.60706 Z71.78046
G1 X-22.61016 Z71.79361
G1 X-22.61325 Z71.80561
G1 X-22.62562 Z71.84622
G1 X-22.63799 Z71.87954
G1 X-22.66273 Z71.93436
G1 X-22.71220 Z72.02833
G1 X-22.76168 Z72.12195
G1 X-22.81116 Z72.21545
G1 X-22.83589 Z72.25791
G1 X-22.86063 Z72.29548
G1 X-22.95958 Z72.41711
G1 X-23.15749 Z72.63174
G1 X-23.20697 Z72.68473
G1 X-23.25644 Z72.73305
G1 X-23.35540 Z72.81768
G1 X-23.55330 Z72.96552
G1 X-23.65226 Z73.04336
G1 X-23.75121 Z73.12044
G1 X-24.14702 Z73.36700
G1 X-24.54283 Z73.58794
G1 X-24.93864 Z73.76583
G1 X-25.33446 Z73.93666
G1 X-25.73027 Z74.08238
G1 X-26.12608 Z74.22205
G1 X-26.52189 Z74.33781
G1 X-26.91770 Z74.44531
G1 X-27.31352 Z74.54653
G1 X-27.70933 Z74.63061
G1 X-28.10514 Z74.71219
G1 X-28.50095 Z74.77558
G1 X-28.89676 Z74.83437
G1 X-29.29258 Z74.88737
G1 X-29.68839 Z74.92393
G1 X-30.08420 Z74.95889
G1 X-30.48001 Z74.97972
G1 X-30.87582 Z74.99189
G1 X-31.27163 Z75.00000
G1 X-37.20881
G1 X-37.60462 Z74.98681
G1 X-38.00044 Z74.94416
G1 X-38.19834 Z74.91043
G1 X-38.39625 Z74.86789
G1 X-38.59415 Z74.81571
G1 X-38.79206 Z74.75280
G1 X-38.98997 Z74.67753
G1 X-39.08892 Z74.63457
G1 X-39.18787 Z74.58755
G1 X-39.28683 Z74.53595
G1 X-39.38578 Z74.47912
G1 X-39.48473 Z74.41617
G1 X-39.53421 Z74.38203
G1 X-39.55895 Z74.36421
G1 X-39.58368 Z74.34586
G1 X-39.68264 Z74.26636
G1 X-39.73211 Z74.22234
G1 X-39.75685 Z74.19906
G1 X-39.78159 Z74.17483
G1 X-39.97950 Z73.91959
G1 X-40.17740 Z72.28500
G1 X-40.22688 Z70.18219
G1 X-40.25162 Z-0.00000
G1 X-70.06120
G1 Y-58.64747
G1 X-41.16693
G1 X-40.96903 Z73.78335
G1 X-40.91955 Z73.88515
G1 X-40.89481 Z73.92800
G1 X-40.87007 Z73.96719
G1 X-40.82060 Z74.03732
G1 X-40.79586 Z74.06913
G1 X-40.77112 Z74.09918
G1 X-40.67217 Z74.20564
G1 X-40.62269 Z74.25243
G1 X-40.57321 Z74.29586
G1 X-40.47426 Z74.37441
G1 X-40.42478 Z74.41018
G1 X-40.37531 Z74.44395
G1 X-40.17740 Z74.56240
G1 X-40.07845 Z74.61333
G1 X-39.97950 Z74.65967
G1 X-39.78159 Z74.74042
G1 X-39.58368 Z74.80753
G1 X-39.38578 Z74.86289
G1 X-39.18787 Z74.90646
G1 X-38.79206 Z74.96738
G1 X-38.39625 Z74.99662
G1 X-38.00044 Z75.00000
G1 X-32.45907
G1 X-32.06326 Z74.99169
G1 X-31.66745 Z74.97941
G1 X-31.27163 Z74.95650
G1 X-30.87582 Z74.91954
G1 X-30.48001 Z74.87977
G1 X-30.08420 Z74.82197
G1 X-29.68839 Z74.76145
G1 X-29.29258 Z74.68923
G1 X-28.89676 Z74.60143
G1 X-28.50095 Z74.50904
G1 X-28.10514 Z74.39803
G1 X-27.70933 Z74.28380
G1 X-27.31352 Z74.14595
G1 X-26.91770 Z73.99680
G1 X-26.52189 Z73.82456
G1 X-26.12608 Z73.64022
G1 X-25.73027 Z73.41730
G1 X-25.53236 Z73.29619
G1 X-25.43341 Z73.23444
G1 X-25.33446 Z73.16616
G1 X-25.13655 Z73.00645
G1 X-24.98812 Z72.88280
G1 X-24.93864 Z72.84287
G1 X-24.83969 Z72.75698
G1 X-24.79021 Z72.70801
G1 X-24.74074 Z72.65352
G1 X-24.54283 Z72.42529
G1 X-24.14702 Z67.01587
G1 X-23.75121 Z63.91982
G1 X-23.35540 Z61.94246
G1 X-22.95958 Z60.36244
G1 X-22.56377 Z59.02751
G1 X-22.16796 Z57.93121
G1 X-21.77215 Z56.89047
G1 X-21.37634 Z55.94661
G1 X-20.98053 Z55.06825
G1 X-20.58471 Z54.29511
G1 X-20.18890 Z53.52317
G1 X-19.79309 Z52.83505
G1 X-19.39728 Z52.15928
G1 X-19.00147 Z51.53749
G1 X-18.20984 Z50.38722
G1 X-17.81403 Z49.82523
G1 X-16.62659 Z48.37939
G1 X-16.23078 Z47.91819
G1 X-15.04335 Z46.70682
G1 X-14.64754 Z46.31569
G1 X-14.25172 Z45.97044
G1 X-13.46010 Z45.29584
G1 X-13.06429 Z44.97491
G1 X-12.66848 Z44.67255
G1 X-12.27266 Z44.37291
G1 X-11.87685 Z44.09281
G1 X-11.48104 Z43.83369
G1 X-10.29360 Z43.09105
G1 X-9.89779 Z42.87157
G1 X-9.50198 Z42.65672
G1 X-9.10617 Z42.45352
G1 X-8.71036 Z42.25674
G1 X-7.52292 Z41.74854
G1 X-7.12711 Z41.59071
G1 X-5.93967 Z41.17449
G1 X-5.54386 Z41.05645
G1 X-4.75224 Z40.84046
G1 X-4.35643 Z40.73844
G1 X-3.96061 Z40.66596
G1 X-3.16899 Z40.52172
G1 X-2.77318 Z40.45870
G1 X-1.58574 Z40.32883
G1 X-1.18993 Z40.30436
G1 X-0.79412 Z40.28992
G1 X-0.00249 Z40.26106
G1 X0.39332 Z40.27531
G1 X1.18494 Z40.30418
G1 X1.58075 Z40.32828
G1 X2.76819 Z40.45815
G1 X3.16400 Z40.52081
G1 X4.35144 Z40.73718
G1 X4.74725 Z40.83910
G1 X5.53887 Z41.05510
G1 X5.93468 Z41.17273
G1 X6.72631 Z41.45021
G1 X7.12212 Z41.58896
G1 X7.51793 Z41.74641
G1 X8.70537 Z42.25461
G1 X9.10118 Z42.45099
G1 X9.49699 Z42.65401
G1 X9.89280 Z42.86886
G1 X10.28861 Z43.08794
G1 X11.47605 Z43.83057
G1 X11.87186 Z44.08928
G1 X12.26767 Z44.36938
G1 X12.66349 Z44.66873
G1 X13.05930 Z44.97110
G1 X13.45511 Z45.29159
G1 X14.24673 Z45.96620
G1 X14.64255 Z46.31108
G1 X15.03836 Z46.70172
G1 X16.22579 Z47.91310
G1 X16.62160 Z48.37331
G1 X17.80904 Z49.81915
G1 X18.20485 Z50.37996
G1 X18.99648 Z51.53024
G1 X19.39229 Z52.15124
G1 X19.78810 Z52.82637
G1 X20.18391 Z53.51449
G1 X20.57972 Z54.28536
G1 X20.97554 Z55.05850
G1 X21.37135 Z55.93472
G1 X21.76716 Z56.87856
G1 X22.16297 Z57.91739
G1 X22.55878 Z59.01369
G1 X22.95459 Z60.34489
G1 X23.35041 Z61.92077
G1 X23.74622 Z63.89145
G1 X24.14203 Z66.94294
G1 X24.16677 Z71.53086
G1 X24.17914 Z71.61613
G1 X24.19151 Z71.70145
G1 X24.20388 Z71.77872
G1 X24.21006 Z71.80564
G1 X24.21625 Z71.82842
G1 X24.22861 Z71.86671
G1 X24.24098 Z71.89900
G1 X24.29046 Z72.00289
G1 X24.33994 Z72.10244
G1 X24.38941 Z72.20198
G1 X24.41415 Z72.24879
G1 X24.43889 Z72.28963
G1 X24.53784 Z72.41954
G1 X24.73575 Z72.64777
G1 X24.93365 Z72.83885
G1 X25.13156 Z73.00230
G1 X25.23051 Z73.08473
G1 X25.32947 Z73.16250
G1 X25.72528 Z73.41425
G1 X26.12109 Z73.63782
G1 X26.51690 Z73.82224
G1 X26.91271 Z73.99488
G1 X27.30853 Z74.14407
G1 X27.70434 Z74.28228
G1 X28.10015 Z74.39661
G1 X28.49596 Z74.50773
G1 X28.89177 Z74.60032
G1 X29.28759 Z74.68816
G1 X29.68340 Z74.76069
G1 X30.07921 Z74.82121
G1 X30.47502 Z74.87916
G1 X30.87083 Z74.91908
G1 X31.26664 Z74.95607
G1 X31.66246 Z74.97926
G1 X32.05827 Z74.99152
G1 X32.45408 Z75.00000
G1 X37.99545
G1 X38.39126 Z74.99710
G1 X38.78707 Z74.96811
G1 X38.98498 Z74.94152
G1 X39.18288 Z74.90633
G1 X39.38079 Z74.86192
G1 X39.57869 Z74.80741
G1 X39.77660 Z74.74156
G1 X39.87555 Z74.70385
G1 X39.97451 Z74.66257
G1 X40.17241 Z74.56775
G1 X40.27137 Z74.51315
G1 X40.32084 Z74.48375
G1 X40.34558 Z74.46847
G1 X40.37032 Z74.45279
G1 X40.46927 Z74.38386
G1 X40.51875 Z74.34578
G1 X40.56822 Z74.30517
G1 X40.66718 Z74.21479
G1 X40.76613 Z74.10817
G1 X40.96404 Z73.79324
G1 X41.06299 Z73.00777
G1 X41.11247 Z71.88184
G1 X41.13720 Z70.82337
G1 X41.14957 Z69.53859
G1 X41.15576 Z-0.00000
G1 X70.05621
G1 Y-58.01344
G1 X42.34938
G1 X41.95357 Z73.15888
G1 X41.94120 Z73.44039
G1 X41.93501 Z73.52180
G1 X41.92883 Z73.56494
G1 X41.91646 Z73.62638
G1 X41.90409 Z73.67356
G1 X41.87935 Z73.74815
G1 X41.85461 Z73.80843
G1 X41.80514 Z73.90620
G1 X41.78040 Z73.94786
G1 X41.75566 Z73.98616
G1 X41.70618 Z74.05499
G1 X41.65671 Z74.11598
G1 X41.60723 Z74.17101
G1 X41.58249 Z74.19669
G1 X41.55775 Z74.22130
G1 X41.45880 Z74.31078
G1 X41.35985 Z74.38879
G1 X41.26089 Z74.45790
G1 X41.16194 Z74.51977
G1 X40.96404 Z74.62611
G1 X40.76613 Z74.71387
G1 X40.56822 Z74.78662
G1 X40.37032 Z74.84664
G1 X40.17241 Z74.89547
G1 X39.97451 Z74.93420
G1 X39.57869 Z74.98303
G1 X39.18288 Z74.99996
G1 X38.78707 Z75.00000
G1 X33.64152
G1 X33.24570 Z74.99347
G1 X32.84989 Z74.98066
G1 X32.45408 Z74.95838
G1 X32.05827 Z74.91993
G1 X31.66246 Z74.87825
G1 X31.26664 Z74.81905
G1 X30.87083 Z74.75553
G1 X30.47502 Z74.67662
G1 X30.07921 Z74.58439
G1 X29.68340 Z74.48563
G1 X29.28759 Z74.36738
G1 X28.89177 Z74.24318
G1 X28.49596 Z74.09027
G1 X28.10015 Z73.92829
G1 X27.70434 Z73.73843
G1 X27.50643 Z73.64106
G1 X27.30853 Z73.53156
G1 X27.11062 Z73.40502
G1 X26.91271 Z73.27724
G1 X26.81376 Z73.21020
G1 X26.71481 Z73.13471
G1 X26.51690 Z72.96247
G1 X26.41795 Z72.87550
G1 X26.36847 Z72.83251
G1 X26.31900 Z72.78788
G1 X26.22004 Z72.68505
G1 X26.17057 Z72.62532
G1 X26.12109 Z72.56490
G1 X26.02214 Z72.44405
G1 X25.97266 Z72.38280
G1 X25.94792 Z72.34935
G1 X25.92318 Z72.31287
G1 X25.82423 Z72.12172
G1 X25.77475 Z72.01629
G1 X25.75002 Z71.96358
G1 X25.72528 Z71.90794
G1 X25.52737 Z65.89229
G1 X25.32947 Z64.33298
G1 X24.93365 Z62.15374
G1 X24.53784 Z60.44849
G1 X24.14203 Z58.99922
G1 X23.74622 Z57.83092
G1 X23.35041 Z56.74213
G1 X22.95459 Z55.73628
G1 X22.55878 Z54.81024
G1 X22.16297 Z53.97725
G1 X21.76716 Z53.19142
G1 X20.97554 Z51.71745
G1 X20.57972 Z51.08584
G1 X20.18391 Z50.46633
G1 X19.78810 Z49.84782
G1 X19.39229 Z49.28494
G1 X18.99648 Z48.75152
G1 X18.60066 Z48.22896
G1 X18.20485 Z47.73387
G1 X17.80904 Z47.25543
G1 X17.41323 Z46.80468
G1 X17.01742 Z46.36342
G1 X16.62160 Z45.94516
G1 X16.22579 Z45.53858
G1 X15.82998 Z45.16024
G1 X15.03836 Z44.41614
G1 X14.64255 Z44.07083
G1 X14.24673 Z43.75656
G1 X13.45511 Z43.13160
G1 X13.05930 Z42.82298
G1 X12.66349 Z42.54752
G1 X11.87186 Z42.02617
G1 X11.47605 Z41.77568
G1 X10.28861 Z41.08452
G1 X9.89280 Z40.87212
G1 X9.49699 Z40.68210
G1 X8.70537 Z40.30843
G1 X8.30955 Z40.14663
G1 X7.51793 Z39.83007
G1 X7.12212 Z39.67726
G1 X6.72631 Z39.54763
G1 X5.93468 Z39.28835
G1 X5.53887 Z39.17387
G1 X5.14306 Z39.07295
G1 X4.74725 Z38.97683
G1 X4.35144 Z38.88221
G1 X3.95562 Z38.81139
G1 X3.16400 Z38.67612
G1 X2.76819 Z38.61523
G1 X1.58075 Z38.49346
G1 X1.18494 Z38.46979
G1 X0.39332 Z38.44273
G1 X-0.00250 Z38.42937
G1 X-1.18993 Z38.46997
G1 X-1.58574 Z38.49397
G1 X-2.77318 Z38.61574
G1 X-3.16899 Z38.67698
G1 X-3.96061 Z38.81224
G1 X-4.35643 Z38.88341
G1 X-4.75224 Z38.97803
G1 X-5.14805 Z39.07423
G1 X-5.54386 Z39.17514
G1 X-5.93967 Z39.28999
G1 X-7.12711 Z39.67890
G1 X-7.52292 Z39.83207
G1 X-8.31454 Z40.14864
G1 X-8.71036 Z40.31078
G1 X-9.50198 Z40.68445
G1 X-9.89779 Z40.87464
G1 X-10.29360 Z41.08742
G1 X-11.48104 Z41.77859
G1 X-11.87685 Z42.02945
G1 X-12.66848 Z42.55081
G1 X-13.06429 Z42.82651
G1 X-13.46010 Z43.13554
G1 X-14.25172 Z43.76050
G1 X-14.64754 Z44.07517
G1 X-15.04335 Z44.42084
G1 X-15.83497 Z45.16494
G1 X-16.23078 Z45.54371
G1 X-16.62659 Z45.95028
G1 X-17.02241 Z46.36899
G1 X-17.41822 Z46.81024
G1 X-17.81403 Z47.26146
G1 X-18.20984 Z47.73990
G1 X-18.60565 Z48.23555
G1 X-19.00147 Z48.75812
G1 X-19.39728 Z49.29203
G1 X-19.79309 Z49.85492
G1 X-20.18890 Z50.47414
G1 X-20.58471 Z51.09364
G1 X-20.98053 Z51.72674
G1 X-21.77215 Z53.20071
G1 X-22.16796 Z53.98769
G1 X-22.56377 Z54.82137
G1 X-22.95958 Z55.74896
G1 X-23.35540 Z56.75480
G1 X-23.75121 Z57.84564
G1 X-24.14702 Z59.01394
G1 X-24.54283 Z60.46711
G1 X-24.93864 Z62.17673
G1 X-25.13655 Z63.17077
G1 X-25.33446 Z64.36303
G1 X-25.53236 Z65.93558
G1 X-25.63132 Z66.97542
G1 X-25.65605 Z71.56289
G1 X-25.66842 Z71.65319
G1 X-25.67770 Z71.72096
G1 X-25.68079 Z71.74352
G1 X-25.69316 Z71.80820
G1 X-25.70553 Z71.85273
G1 X-25.71790 Z71.88887
G1 X-25.73027 Z71.92005
G1 X-25.82922 Z72.13235
G1 X-25.87870 Z72.23633
G1 X-25.90344 Z72.28097
G1 X-25.92817 Z72.32051
G1 X-26.02713 Z72.45015
G1 X-26.12608 Z72.57099
G1 X-26.22503 Z72.69079
G1 X-26.32399 Z72.79255
G1 X-26.52189 Z72.96686
G1 X-26.62084 Z73.05384
G1 X-26.71980 Z73.13876
G1 X-26.91770 Z73.28046
G1 X-27.11561 Z73.40824
G1 X-27.31352 Z73.53457
G1 X-27.70933 Z73.74087
G1 X-28.10514 Z73.93046
G1 X-28.50095 Z74.09225
G1 X-28.89676 Z74.24492
G1 X-29.29258 Z74.36888
G1 X-29.68839 Z74.48703
G1 X-30.08420 Z74.58555
G1 X-30.48001 Z74.67778
G1 X-30.87582 Z74.75635
G1 X-31.27163 Z74.81985
G1 X-31.66745 Z74.87887
G1 X-32.06326 Z74.92042
G1 X-32.45907 Z74.95881
G1 X-32.85488 Z74.98082
G1 X-33.25069 Z74.99363
G1 X-33.64651 Z75.00000
G1 X-38.79206
G1 X-39.18787 Z74.99996
G1 X-39.58368 Z74.98243
G1 X-39.78159 Z74.96143
G1 X-39.97950 Z74.93187
G1 X-40.17740 Z74.89323
G1 X-40.37531 Z74.84478
G1 X-40.57321 Z74.78549
G1 X-40.67217 Z74.75134
G1 X-40.77112 Z74.71387
G1 X-40.96903 Z74.62774
G1 X-41.06798 Z74.57694
G1 X-41.11746 Z74.54935
G1 X-41.16693 Z74.52031
G1 X-41.26588 Z74.45740
G1 X-41.36484 Z74.38699
G1 X-41.46379 Z74.30733
G1 X-41.51327 Z74.26323
G1 X-41.53801 Z74.23992
G1 X-41.55037 Z74.22791
G1 X-41.55656 Z74.22182
G1 X-41.56274 Z74.21566
G1 X-41.95856 Z72.87633
G1 X-42.05751 Z-0.00000
G1 X-70.06120
G1 Y-57.37942
G1 X-42.94809
G1 X-42.84913 Z72.35331
G1 X-42.80584 Z73.38776
G1 X-42.80275 Z73.46088
G1 X-42.80120 Z73.48539
G1 X-42.79966 Z73.50352
G1 X-42.78729 Z73.59135
G1 X-42.77492 Z73.64825
G1 X-42.76255 Z73.69367
G1 X-42.75636 Z73.71375
G1 X-42.75327 Z73.72329
G1 X-42.75018 Z73.73254
G1 X-42.72544 Z73.79827
G1 X-42.70070 Z73.85382
G1 X-42.65123 Z73.94659
G1 X-42.60175 Z74.02241
G1 X-42.57701 Z74.05618
G1 X-42.55227 Z74.08796
G1 X-42.45332 Z74.19972
G1 X-42.40384 Z74.24852
G1 X-42.35437 Z74.29366
G1 X-42.25541 Z74.37501
G1 X-42.15646 Z74.44675
G1 X-42.05751 Z74.51076
G1 X-41.95856 Z74.56832
G1 X-41.76065 Z74.66757
G1 X-41.56274 Z74.74947
G1 X-41.36484 Z74.81707
G1 X-41.16693 Z74.87235
G1 X-40.96903 Z74.91668
G1 X-40.77112 Z74.95099
G1 X-40.37531 Z74.99166
G1 X-39.97950 Z75.00000
G1 X-34.83394
G1 X-34.43813 Z74.99726
G1 X-34.04232 Z74.98394
G1 X-33.64651 Z74.96514
G1 X-33.25069 Z74.92655
G1 X-32.85488 Z74.88612
G1 X-32.45907 Z74.82678
G1 X-32.06326 Z74.76043
G1 X-31.66745 Z74.67943
G1 X-31.27163 Z74.58384
G1 X-30.87582 Z74.48219
G1 X-30.48001 Z74.35790
G1 X-30.08420 Z74.22511
G1 X-29.68839 Z74.06261
G1 X-29.29258 Z73.89195
G1 X-28.89676 Z73.68872
G1 X-28.50095 Z73.45418
G1 X-28.30305 Z73.31980
G1 X-28.20409 Z73.25226
G1 X-28.10514 Z73.17839
G1 X-27.90723 Z73.00245
G1 X-27.80828 Z72.91100
G1 X-27.75880 Z72.86751
G1 X-27.73407 Z72.84570
G1 X-27.70933 Z72.82317
G1 X-27.51142 Z72.59894
G1 X-27.41247 Z72.47144
G1 X-27.36299 Z72.40768
G1 X-27.33825 Z72.37440
G1 X-27.31352 Z72.33827
G1 X-26.91770 Z65.85532
G1 X-26.52189 Z62.97933
G1 X-26.12608 Z61.01396
G1 X-25.73027 Z59.44201
G1 X-25.33446 Z58.12369
G1 X-24.93864 Z56.93281
G1 X-24.54283 Z55.86561
G1 X-24.14702 Z54.86983
G1 X-23.75121 Z53.95689
G1 X-23.35540 Z53.12488
G1 X-22.95958 Z52.33947
G1 X-22.56377 Z51.56781
G1 X-22.16796 Z50.87270
G1 X-21.77215 Z50.20922
G1 X-21.37634 Z49.57424
G1 X-20.98053 Z48.97139
G1 X-20.58471 Z48.37630
G1 X-20.18890 Z47.83186
G1 X-19.39728 Z46.80115
G1 X-19.00147 Z46.29267
G1 X-18.60565 Z45.84571
G1 X-17.81403 Z44.96402
G1 X-17.41822 Z44.53152
G1 X-17.02241 Z44.14572
G1 X-16.23078 Z43.39243
G1 X-15.83497 Z43.02728
G1 X-15.43916 Z42.68261
G1 X-15.04335 Z42.35679
G1 X-14.64754 Z42.03602
G1 X-14.25172 Z41.73107
G1 X-13.06429 Z40.85862
G1 X-12.66848 Z40.60555
G1 X-11.87685 Z40.11839
G1 X-11.48104 Z39.87491
G1 X-10.29360 Z39.22909
G1 X-9.89779 Z39.02397
G1 X-8.71036 Z38.49840
G1 X-8.31454 Z38.33997
G1 X-7.91873 Z38.19156
G1 X-7.52292 Z38.04315
G1 X-7.12711 Z37.89474
G1 X-6.73130 Z37.77264
G1 X-5.93967 Z37.52953
G1 X-5.54386 Z37.41757
G1 X-5.14805 Z37.32295
G1 X-4.75224 Z37.23179
G1 X-4.35643 Z37.14279
G1 X-3.96061 Z37.07285
G1 X-3.16899 Z36.94565
G1 X-2.77318 Z36.88604
G1 X-1.58574 Z36.77151
G1 X-1.18993 Z36.74791
G1 X-0.79412 Z36.73519
G1 X-0.00249 Z36.70974
G1 X0.39332 Z36.72230
G1 X1.18494 Z36.74776
G1 X1.58075 Z36.77103
G1 X2.76819 Z36.88556
G1 X3.16400 Z36.94484
G1 X3.95562 Z37.07205
G1 X4.35144 Z37.14167
G1 X4.74725 Z37.23067
G1 X5.14306 Z37.32175
G1 X5.53887 Z37.41638
G1 X5.93468 Z37.52800
G1 X6.72631 Z37.77111
G1 X7.12212 Z37.89286
G1 X8.30955 Z38.33810
G1 X8.70537 Z38.49620
G1 X9.89280 Z39.02176
G1 X10.28861 Z39.22638
G1 X11.47605 Z39.87220
G1 X11.87186 Z40.11533
G1 X12.66349 Z40.60249
G1 X13.05930 Z40.85495
G1 X14.24673 Z41.72740
G1 X14.64255 Z42.03198
G1 X15.03836 Z42.35276
G1 X15.43417 Z42.67827
G1 X15.82998 Z43.02293
G1 X16.22579 Z43.38768
G1 X17.01742 Z44.14096
G1 X17.41323 Z44.52639
G1 X17.80904 Z44.95847
G1 X18.60066 Z45.84014
G1 X18.99648 Z46.28665
G1 X19.39229 Z46.79466
G1 X20.18391 Z47.82536
G1 X20.57972 Z48.36920
G1 X20.97554 Z48.96379
G1 X21.37135 Z49.56665
G1 X21.76716 Z50.20086
G1 X22.16297 Z50.86435
G1 X22.55878 Z51.55890
G1 X22.95459 Z52.32958
G1 X23.35041 Z53.11497
G1 X23.74622 Z53.94575
G1 X24.14203 Z54.85802
G1 X24.53784 Z55.85214
G1 X24.93365 Z56.91937
G1 X25.32947 Z58.10806
G1 X25.72528 Z59.42232
G1 X26.12109 Z60.98967
G1 X26.51690 Z62.94752
G1 X26.91271 Z65.80957
G1 X27.01167 Z66.83757
G1 X27.06114 Z71.69317
G1 X27.07351 Z71.77994
G1 X27.07970 Z71.80947
G1 X27.08588 Z71.83419
G1 X27.11062 Z71.90997
G1 X27.20957 Z72.13507
G1 X27.23431 Z72.19068
G1 X27.25905 Z72.24397
G1 X27.28379 Z72.28991
G1 X27.30853 Z72.33057
G1 X27.50643 Z72.59252
G1 X27.55591 Z72.65627
G1 X27.60538 Z72.71646
G1 X27.70434 Z72.81851
G1 X27.90224 Z72.99784
G1 X28.00120 Z73.08931
G1 X28.10015 Z73.17441
G1 X28.49596 Z73.45079
G1 X28.89177 Z73.68615
G1 X29.28759 Z73.88951
G1 X29.68340 Z74.06054
G1 X30.07921 Z74.22320
G1 X30.47502 Z74.35633
G1 X30.87083 Z74.48070
G1 X31.26664 Z74.58268
G1 X31.66246 Z74.67821
G1 X32.05827 Z74.75959
G1 X32.45408 Z74.82594
G1 X32.84989 Z74.88553
G1 X33.24570 Z74.92604
G1 X33.64152 Z74.96475
G1 X34.03733 Z74.98377
G1 X34.43314 Z74.99711
G1 X34.82895 Z75.00000
G1 X39.97451
G1 X40.37032 Z74.99161
G1 X40.56822 Z74.97562
G1 X40.76613 Z74.95100
G1 X40.96404 Z74.91734
G1 X41.16194 Z74.87401
G1 X41.35985 Z74.82012
G1 X41.45880 Z74.78883
G1 X41.55775 Z74.75439
G1 X41.75566 Z74.67245
G1 X41.85461 Z74.62493
G1 X41.90409 Z74.59936
G1 X41.95357 Z74.57247
G1 X42.05252 Z74.51437
G1 X42.15147 Z74.44968
G1 X42.25042 Z74.37706
G1 X42.29990 Z74.33721
G1 X42.32464 Z74.31627
G1 X42.33701 Z74.30552
G1 X42.34938 Z74.29458
G1 X42.44833 Z74.19913
G1 X42.49781 Z74.14498
G1 X42.52255 Z74.11589
G1 X42.53491 Z74.10076
G1 X42.54728 Z74.08521
G1 X42.74519 Z73.72736
G1 X42.84414 Z72.34883
G1 X42.89362 Z70.21330
G1 X42.91836 Z-0.00000
G1 X70.05621
G1 Y-56.74539
G1 X43.93263
G1 X43.73472 Z69.78555
G1 X43.68524 Z72.29198
G1 X43.63731 Z73.45516
G1 X43.63654 Z73.47021
G1 X43.63577 Z73.48207
G1 X43.61103 Z73.64250
G1 X43.59866 Z73.68955
G1 X43.58629 Z73.72952
G1 X43.56155 Z73.79673
G1 X43.54918 Z73.82605
G1 X43.54300 Z73.83991
G1 X43.53681 Z73.85330
G1 X43.48734 Z73.94753
G1 X43.43786 Z74.02598
G1 X43.38838 Z74.09411
G1 X43.36365 Z74.12526
G1 X43.33891 Z74.15478
G1 X43.28943 Z74.20969
G1 X43.23995 Z74.25993
G1 X43.19048 Z74.30530
G1 X43.14100 Z74.34722
G1 X43.04205 Z74.42328
G1 X42.94310 Z74.49078
G1 X42.84414 Z74.55124
G1 X42.74519 Z74.60574
G1 X42.54728 Z74.69978
G1 X42.34938 Z74.77722
G1 X42.15147 Z74.84078
G1 X41.95357 Z74.89225
G1 X41.75566 Z74.93284
G1 X41.55775 Z74.96342
G1 X41.16194 Z74.99667
G1 X40.76613 Z75.00000
G1 X36.01639
G1 X35.62058 Z74.99993
G1 X35.22476 Z74.98860
G1 X34.82895 Z74.97321
G1 X34.43314 Z74.93850
G1 X34.03733 Z74.89793
G1 X33.64152 Z74.84187
G1 X33.24570 Z74.77266
G1 X32.84989 Z74.69274
G1 X32.45408 Z74.59638
G1 X32.05827 Z74.49265
G1 X31.66246 Z74.36348
G1 X31.26664 Z74.22495
G1 X30.87083 Z74.05749
G1 X30.47502 Z73.87923
G1 X30.07921 Z73.66550
G1 X29.68340 Z73.41059
G1 X29.48549 Z73.26968
G1 X29.28759 Z73.10804
G1 X29.08968 Z72.92283
G1 X28.99073 Z72.83089
G1 X28.94125 Z72.78097
G1 X28.91651 Z72.75412
G1 X28.89177 Z72.72578
G1 X28.79282 Z72.59655
G1 X28.71861 Z72.49599
G1 X28.69387 Z72.46246
G1 X28.64439 Z72.39517
G1 X28.61965 Z72.35902
G1 X28.60728 Z72.33969
G1 X28.59491 Z72.31937
G1 X28.54544 Z72.22414
G1 X28.49596 Z72.10765
G1 X28.29806 Z66.52851
G1 X28.10015 Z64.63960
G1 X27.70434 Z62.18182
G1 X27.30853 Z60.30410
G1 X26.91271 Z58.74843
G1 X26.51690 Z57.43830
G1 X26.12109 Z56.28198
G1 X25.72528 Z55.18184
G1 X25.32947 Z54.19230
G1 X24.93365 Z53.28537
G1 X24.53784 Z52.45204
G1 X24.14203 Z51.62600
G1 X23.74622 Z50.87579
G1 X23.35041 Z50.15916
G1 X22.95459 Z49.48917
G1 X22.16297 Z48.20427
G1 X21.76716 Z47.62562
G1 X20.97554 Z46.52173
G1 X20.57972 Z45.98904
G1 X20.18391 Z45.50171
G1 X19.39229 Z44.55202
G1 X18.99648 Z44.10148
G1 X18.60066 Z43.68257
G1 X17.80904 Z42.86578
G1 X17.41323 Z42.46795
G1 X17.01742 Z42.11053
G1 X15.82998 Z41.05894
G1 X15.43417 Z40.74169
G1 X14.64255 Z40.14223
G1 X14.24673 Z39.84635
G1 X13.45511 Z39.30288
G1 X13.05930 Z39.03226
G1 X12.66349 Z38.78790
G1 X11.47605 Z38.10272
G1 X11.08024 Z37.89279
G1 X10.28861 Z37.48909
G1 X9.89280 Z37.28808
G1 X9.49699 Z37.12323
G1 X9.10118 Z36.95847
G1 X8.70537 Z36.79370
G1 X8.30955 Z36.63899
G1 X7.12212 Z36.22024
G1 X6.72631 Z36.10071
G1 X5.93468 Z35.87205
G1 X5.53887 Z35.76305
G1 X4.74725 Z35.58507
G1 X4.35144 Z35.49844
G1 X3.95562 Z35.42993
G1 X3.16400 Z35.30998
G1 X2.76819 Z35.25218
G1 X1.97656 Z35.18018
G1 X1.58075 Z35.14417
G1 X1.18494 Z35.12128
G1 X0.39332 Z35.09727
G1 X-0.00250 Z35.08542
G1 X-1.18993 Z35.12144
G1 X-1.58574 Z35.14462
G1 X-2.77318 Z35.25263
G1 X-3.16899 Z35.31073
G1 X-3.96061 Z35.43069
G1 X-4.35643 Z35.49949
G1 X-4.75224 Z35.58619
G1 X-5.54386 Z35.76417
G1 X-5.93967 Z35.87350
G1 X-6.73130 Z36.10215
G1 X-7.12711 Z36.22200
G1 X-7.52292 Z36.36158
G1 X-7.91873 Z36.50116
G1 X-8.31454 Z36.64074
G1 X-8.71036 Z36.79577
G1 X-9.50198 Z37.12530
G1 X-9.89779 Z37.29029
G1 X-10.29360 Z37.49163
G1 X-11.08523 Z37.89533
G1 X-11.48104 Z38.10561
G1 X-12.66848 Z38.79078
G1 X-13.06429 Z39.03547
G1 X-13.46010 Z39.30631
G1 X-14.25172 Z39.84978
G1 X-14.64754 Z40.14602
G1 X-15.43916 Z40.74548
G1 X-15.83497 Z41.06336
G1 X-17.02241 Z42.11495
G1 X-17.41822 Z42.47275
G1 X-17.81403 Z42.87092
G1 X-18.60565 Z43.68771
G1 X-19.00147 Z44.10702
G1 X-19.39728 Z44.55801
G1 X-20.18890 Z45.50770
G1 X-20.58471 Z45.99545
G1 X-20.98053 Z46.52870
G1 X-21.77215 Z47.63258
G1 X-22.16796 Z48.21237
G1 X-22.95958 Z49.49727
G1 X-23.35540 Z50.16807
G1 X-23.75121 Z50.88525
G1 X-24.14702 Z51.63545
G1 X-24.54283 Z52.46255
G1 X-24.93864 Z53.29586
G1 X-25.33446 Z54.20478
G1 X-25.73027 Z55.19433
G1 X-26.12608 Z56.29622
G1 X-26.52189 Z57.45481
G1 X-26.91770 Z58.76495
G1 X-27.31352 Z60.32486
G1 X-27.70933 Z62.20741
G1 X-27.90723 Z63.34580
G1 X-28.10514 Z64.67305
G1 X-28.30305 Z66.58650
G1 X-28.35252 Z71.58053
G1 X-28.37108 Z71.73092
G1 X-28.37417 Z71.75494
G1 X-28.37726 Z71.77469
G1 X-28.38963 Z71.83297
G1 X-28.40200 Z71.87635
G1 X-28.45147 Z72.00248
G1 X-28.48858 Z72.09021
G1 X-28.50095 Z72.11945
G1 X-28.55043 Z72.23509
G1 X-28.57517 Z72.28446
G1 X-28.59990 Z72.32770
G1 X-28.64938 Z72.40211
G1 X-28.69886 Z72.46923
G1 X-28.79781 Z72.60331
G1 X-28.84729 Z72.67024
G1 X-28.89676 Z72.73163
G1 X-29.09467 Z72.92745
G1 X-29.19362 Z73.01891
G1 X-29.29258 Z73.11272
G1 X-29.68839 Z73.41414
G1 X-30.08420 Z73.66820
G1 X-30.48001 Z73.88183
G1 X-30.87582 Z74.05956
G1 X-31.27163 Z74.22693
G1 X-31.66745 Z74.36513
G1 X-32.06326 Z74.49415
G1 X-32.45907 Z74.59759
G1 X-32.85488 Z74.69395
G1 X-33.25069 Z74.77353
G1 X-33.64651 Z74.84274
G1 X-34.04232 Z74.89845
G1 X-34.43813 Z74.93901
G1 X-34.83394 Z74.97350
G1 X-35.22975 Z74.98877
G1 X-35.62557 Z74.99996
G1 X-36.02138 Z75.00000
G1 X-40.77112
G1 X-41.16693 Z74.99616
G1 X-41.36484 Z74.98377
G1 X-41.56274 Z74.96260
G1 X-41.76065 Z74.93228
G1 X-41.95856 Z74.89227
G1 X-42.15646 Z74.84173
G1 X-42.25541 Z74.81127
G1 X-42.35437 Z74.77739
G1 X-42.55227 Z74.69861
G1 X-42.65123 Z74.65302
G1 X-42.70070 Z74.62847
G1 X-42.75018 Z74.60266
G1 X-42.84913 Z74.54691
G1 X-42.94809 Z74.48493
G1 X-43.04704 Z74.41557
G1 X-43.09651 Z74.37762
G1 X-43.12125 Z74.35772
G1 X-43.13362 Z74.34752
G1 X-43.14599 Z74.33715
G1 X-43.24494 Z74.24714
G1 X-43.29442 Z74.19656
G1 X-43.31916 Z74.16956
G1 X-43.34390 Z74.14125
G1 X-43.54180 Z73.83489
G1 X-43.64076 Z73.32451
G1 X-43.71497 Z71.55111
G1 X-43.72734 Z70.53467
G1 X-43.73662 Z69.52357
G1 X-43.73816 Z-0.00000
G1 X-70.06120
G1 Y-56.11136
G1 X-44.72924
G1 X-44.53133 Z71.19118
G1 X-44.48186 Z72.61839
G1 X-44.45712 Z73.22791
G1 X-44.44475 Z73.50219
G1 X-44.43856 Z73.55490
G1 X-44.43547 Z73.57493
G1 X-44.43238 Z73.59273
G1 X-44.40764 Z73.69711
G1 X-44.38290 Z73.77173
G1 X-44.35817 Z73.83275
G1 X-44.34580 Z73.85995
G1 X-44.33961 Z73.87290
G1 X-44.33343 Z73.88546
G1 X-44.28395 Z73.97503
G1 X-44.23447 Z74.05067
G1 X-44.18500 Z74.11690
G1 X-44.13552 Z74.17616
G1 X-44.03657 Z74.27937
G1 X-43.98709 Z74.32504
G1 X-43.93762 Z74.36753
G1 X-43.83866 Z74.44453
G1 X-43.73971 Z74.51121
G1 X-43.64076 Z74.57051
G1 X-43.54180 Z74.62396
G1 X-43.34390 Z74.71608
G1 X-43.14599 Z74.79172
G1 X-42.94809 Z74.85348
G1 X-42.75018 Z74.90307
G1 X-42.55227 Z74.94170
G1 X-42.35437 Z74.97016
G1 X-41.95856 Z74.99861
G1 X-41.56274 Z75.00000
G1 X-36.81300
G1 X-36.41719 Z74.99530
G1 X-36.02138 Z74.98114
G1 X-35.62557 Z74.95671
G1 X-35.22975 Z74.91475
G1 X-34.83394 Z74.86617
G1 X-34.43813 Z74.79569
G1 X-34.04232 Z74.72168
G1 X-33.64651 Z74.62465
G1 X-33.25069 Z74.52135
G1 X-32.85488 Z74.39055
G1 X-32.45907 Z74.25019
G1 X-32.06326 Z74.08314
G1 X-31.66745 Z73.90162
G1 X-31.27163 Z73.67936
G1 X-30.87582 Z73.41595
G1 X-30.67792 Z73.26860
G1 X-30.57896 Z73.19242
G1 X-30.48001 Z73.10581
G1 X-30.28210 Z72.91420
G1 X-30.18315 Z72.81709
G1 X-30.13368 Z72.76318
G1 X-30.10894 Z72.73397
G1 X-30.08420 Z72.70293
G1 X-29.98525 Z72.56439
G1 X-29.93577 Z72.49409
G1 X-29.88629 Z72.42379
G1 X-29.83682 Z72.34944
G1 X-29.81208 Z72.30667
G1 X-29.78734 Z72.25825
G1 X-29.73786 Z72.14012
G1 X-29.68839 Z72.01747
G1 X-29.49048 Z66.09095
G1 X-29.29258 Z64.26964
G1 X-28.89676 Z61.79735
G1 X-28.50095 Z59.91082
G1 X-28.10514 Z58.38845
G1 X-27.70933 Z57.03999
G1 X-27.31352 Z55.85198
G1 X-26.91770 Z54.75193
G1 X-26.52189 Z53.73571
G1 X-26.12608 Z52.83268
G1 X-25.73027 Z51.95194
G1 X-25.33446 Z51.13309
G1 X-24.93864 Z50.35084
G1 X-24.54283 Z49.62412
G1 X-23.75121 Z48.26080
G1 X-23.35540 Z47.62087
G1 X-22.56377 Z46.44449
G1 X-22.16796 Z45.88447
G1 X-21.77215 Z45.34352
G1 X-21.37634 Z44.83497
G1 X-20.98053 Z44.33235
G1 X-20.58471 Z43.86123
G1 X-20.18890 Z43.39137
G1 X-19.79309 Z42.95148
G1 X-19.39728 Z42.51841
G1 X-19.00147 Z42.10901
G1 X-18.60565 Z41.70316
G1 X-17.81403 Z40.94299
G1 X-17.41822 Z40.58000
G1 X-17.02241 Z40.23217
G1 X-15.83497 Z39.24956
G1 X-15.43916 Z38.94212
G1 X-14.25172 Z38.09900
G1 X-13.85591 Z37.83689
G1 X-13.06429 Z37.32730
G1 X-12.66848 Z37.08575
G1 X-11.48104 Z36.44135
G1 X-11.08523 Z36.23560
G1 X-10.29360 Z35.85592
G1 X-9.89779 Z35.66608
G1 X-9.50198 Z35.49720
G1 X-8.71036 Z35.18645
G1 X-8.31454 Z35.03458
G1 X-7.12711 Z34.63969
G1 X-6.73130 Z34.52194
G1 X-5.93967 Z34.30632
G1 X-5.54386 Z34.19943
G1 X-4.35643 Z33.94768
G1 X-3.96061 Z33.87602
G1 X-3.56480 Z33.81604
G1 X-3.16899 Z33.75859
G1 X-2.77318 Z33.70189
G1 X-2.37737 Z33.66784
G1 X-1.58574 Z33.59978
G1 X-1.18993 Z33.57696
G1 X-0.00249 Z33.54293
G1 X0.39332 Z33.55413
G1 X1.18494 Z33.57682
G1 X1.58075 Z33.59935
G1 X2.76819 Z33.70144
G1 X3.16400 Z33.75788
G1 X3.55981 Z33.81529
G1 X3.95562 Z33.87527
G1 X4.35144 Z33.94662
G1 X5.14306 Z34.11445
G1 X5.53887 Z34.19837
G1 X5.93468 Z34.30496
G1 X6.72631 Z34.52057
G1 X7.12212 Z34.63803
G1 X8.30955 Z35.03292
G1 X8.70537 Z35.18449
G1 X9.49699 Z35.49525
G1 X9.89280 Z35.66368
G1 X11.08024 Z36.23320
G1 X11.47605 Z36.43864
G1 X12.66349 Z37.08304
G1 X13.05930 Z37.32409
G1 X13.85092 Z37.83368
G1 X14.24673 Z38.09547
G1 X15.43417 Z38.93858
G1 X15.82998 Z39.24543
G1 X17.01742 Z40.22805
G1 X17.41323 Z40.57552
G1 X17.80904 Z40.93819
G1 X18.60066 Z41.69836
G1 X18.99648 Z42.10385
G1 X19.39229 Z42.51324
G1 X19.78810 Z42.94594
G1 X20.18391 Z43.38582
G1 X20.57972 Z43.85529
G1 X20.97554 Z44.32641
G1 X21.37135 Z44.82856
G1 X21.76716 Z45.33712
G1 X22.16297 Z45.87764
G1 X22.55878 Z46.43708
G1 X23.35041 Z47.61346
G1 X23.74622 Z48.25221
G1 X24.53784 Z49.61552
G1 X24.93365 Z50.34137
G1 X25.32947 Z51.12309
G1 X25.72528 Z51.94085
G1 X26.12109 Z52.82157
G1 X26.51690 Z53.72325
G1 X26.91271 Z54.73879
G1 X27.30853 Z55.83701
G1 X27.70434 Z57.02502
G1 X28.10015 Z58.37105
G1 X28.49596 Z59.88907
G1 X28.89177 Z61.77043
G1 X29.08968 Z62.84106
G1 X29.28759 Z64.23453
G1 X29.48549 Z66.04029
G1 X29.53497 Z66.54221
G1 X29.55971 Z66.97307
G1 X29.57207 Z71.43454
G1 X29.58444 Z71.55065
G1 X29.60918 Z71.75907
G1 X29.62155 Z71.82536
G1 X29.63392 Z71.87223
G1 X29.65866 Z71.94373
G1 X29.68340 Z72.00510
G1 X29.73287 Z72.12774
G1 X29.75761 Z72.18907
G1 X29.78235 Z72.24759
G1 X29.80709 Z72.29742
G1 X29.83183 Z72.34118
G1 X29.88130 Z72.41670
G1 X30.02973 Z72.62759
G1 X30.05447 Z72.66273
G1 X30.07921 Z72.69642
G1 X30.27711 Z72.90937
G1 X30.37607 Z73.00527
G1 X30.47502 Z73.10108
G1 X30.87083 Z73.41224
G1 X31.26664 Z73.67653
G1 X31.66246 Z73.89900
G1 X32.05827 Z74.08097
G1 X32.45408 Z74.24829
G1 X32.84989 Z74.38883
G1 X33.24570 Z74.51990
G1 X33.64152 Z74.62338
G1 X34.03733 Z74.72061
G1 X34.43314 Z74.79478
G1 X34.82895 Z74.86538
G1 X35.22476 Z74.91422
G1 X35.62058 Z74.95622
G1 X36.01639 Z74.98097
G1 X36.41220 Z74.99512
G1 X36.80801 Z75.00000
G1 X41.55775
G1 X41.95357 Z74.99863
G1 X42.15147 Z74.98930
G1 X42.34938 Z74.97099
G1 X42.54728 Z74.94340
G1 X42.74519 Z74.90599
G1 X42.94310 Z74.85632
G1 X43.04205 Z74.82690
G1 X43.14100 Z74.79418
G1 X43.33891 Z74.71778
G1 X43.43786 Z74.67345
G1 X43.48734 Z74.64956
G1 X43.53681 Z74.62445
G1 X43.63577 Z74.57018
G1 X43.73472 Z74.50986
G1 X43.83367 Z74.44243
G1 X43.88315 Z74.40561
G1 X43.90789 Z74.38632
G1 X43.93263 Z74.36639
G1 X44.03158 Z74.27947
G1 X44.08105 Z74.23087
G1 X44.10579 Z74.20501
G1 X44.13053 Z74.17798
G1 X44.32844 Z73.89450
G1 X44.52634 Z71.58489
G1 X44.57582 Z-0.00000
G1 X70.05621
G1 Y-55.47734
G1 X45.51587
G1 X45.31797 Z71.19818
G1 X45.26849 Z72.63809
G1 X45.24375 Z73.25666
G1 X45.23138 Z73.51603
G1 X45.22520 Z73.56458
G1 X45.22211 Z73.58373
G1 X45.21901 Z73.60093
G1 X45.19428 Z73.70355
G1 X45.16954 Z73.77778
G1 X45.14480 Z73.83870
G1 X45.13243 Z73.86591
G1 X45.12625 Z73.87886
G1 X45.12006 Z73.89144
G1 X45.07058 Z73.98115
G1 X45.02111 Z74.05700
G1 X44.97163 Z74.12343
G1 X44.92215 Z74.18289
G1 X44.82320 Z74.28643
G1 X44.77373 Z74.33225
G1 X44.72425 Z74.37486
G1 X44.62530 Z74.45204
G1 X44.52634 Z74.52032
G1 X44.42739 Z74.58127
G1 X44.32844 Z74.63493
G1 X44.13053 Z74.72636
G1 X43.93263 Z74.80118
G1 X43.73472 Z74.86198
G1 X43.53681 Z74.91046
G1 X43.33891 Z74.94778
G1 X43.14100 Z74.97475
G1 X42.74519 Z74.99954
G1 X42.34938 Z75.00000
G1 X37.59963
G1 X37.20382 Z74.98912
G1 X36.80801 Z74.97318
G1 X36.41220 Z74.93570
G1 X36.01639 Z74.89133
G1 X35.62058 Z74.82727
G1 X35.22476 Z74.75516
G1 X34.82895 Z74.66364
G1 X34.43314 Z74.55892
G1 X34.03733 Z74.43232
G1 X33.64152 Z74.29405
G1 X33.24570 Z74.12855
G1 X32.84989 Z73.94588
G1 X32.45408 Z73.71922
G1 X32.05827 Z73.45688
G1 X31.86036 Z73.30955
G1 X31.76141 Z73.23470
G1 X31.66246 Z73.15058
G1 X31.46455 Z72.95322
G1 X31.36560 Z72.85294
G1 X31.31612 Z72.80026
G1 X31.29138 Z72.77185
G1 X31.26664 Z72.74179
G1 X31.16769 Z72.60233
G1 X31.11822 Z72.52882
G1 X31.06874 Z72.45531
G1 X31.01926 Z72.38086
G1 X30.99452 Z72.33959
G1 X30.96979 Z72.29349
G1 X30.92031 Z72.17831
G1 X30.87083 Z72.05007
G1 X30.47502 Z64.25338
G1 X30.07921 Z61.68475
G1 X29.68340 Z59.77476
G1 X29.28759 Z58.21642
G1 X28.89177 Z56.83255
G1 X28.49596 Z55.58524
G1 X28.10015 Z54.46796
G1 X27.70434 Z53.43751
G1 X27.30853 Z52.50989
G1 X26.91271 Z51.59317
G1 X26.51690 Z50.75807
G1 X26.12109 Z49.95436
G1 X25.72528 Z49.22507
G1 X25.32947 Z48.50463
G1 X24.93365 Z47.80510
G1 X24.53784 Z47.16493
G1 X24.14203 Z46.54084
G1 X23.74622 Z45.94017
G1 X23.35041 Z45.36514
G1 X22.95459 Z44.80474
G1 X22.55878 Z44.27341
G1 X21.76716 Z43.26927
G1 X21.37135 Z42.78022
G1 X20.97554 Z42.32995
G1 X20.18391 Z41.45302
G1 X19.78810 Z41.02841
G1 X19.39229 Z40.63242
G1 X18.60066 Z39.86734
G1 X18.20485 Z39.50127
G1 X17.80904 Z39.14612
